!!!!SEGMENT: pl-cz--iii-38--001-001_bogoimski-tadeusz--ave-regina-ave-regina.krn
!!!cenid: 18xx:682
!!!COM: Bogoimski, Tadeusz
!!!COM-rismID: pe30024244
!!!CDT: ~1800-~1899
!!!CNT:
!!!OPR: Ave Regina
!!!OTL: Ave Regina
!!!OMV: 001
!!!PDT: 1840
!!!AGN: Sacred
!!!SMS-siglum: PL-CZ
!!!SMS-shelfmark: III-38
!!!SMS-shelfwork: 001-001 M
!!!SMS-variant:
!!!SMS-altvar:
!!!NIFC-rismSourceID: 300237591
!!!NIFC-rismChildID: 300237591
!!!NIFC-islandoraID: pl-cz:38113
!!!URL-pdf-islandora: https://repozytorium.nifc.pl/islandora/object/pl-cz%3A38113/datastream/PDF/view
!!!URL-scan:
!!!ONB-nifc: UWAGA: części Ave Regina: Ave Regina, Gaude virgo gloriosa
!!!AIN: 1 cbass 2 clars 1 clrno 1 cor 1 flt 1 organ 1 tenor/bass 1 viola 2 violn
!!!key: A
!!!OMD:
!!!OMD-mod: Andante sostenuto
**kern	**kern	**dynam	**kern	**dynam	**kern	**dynam	**kern	**dynam	**kern	**text	**kern	**dynam	**kern	**dynam	**kern	**dynam	**kern	**dynam	**kern	**dynam
*	*group3	*	*group3	*	*group3	*	*group3	*	*	*	*group2	*	*group2	*	*group1	*	*group1	*	*group1	*
*part11	*part10	*part10	*part9	*part9	*part8	*part8	*part7	*part7	*part6	*part6	*part5	*part5	*part4	*part4	*part3	*part3	*part2	*part2	*part1	*part1
*staff11	*staff10	*	*staff9	*	*staff8	*	*staff7	*	*staff6	*staff6	*staff5	*	*staff4	*	*staff3	*	*staff2	*	*staff1	*
*I"Organo	*I"Baſso.	*	*I"Viola	*	*I"Violino Secundo	*	*I"Violino 1mo	*	*I"Tenore et Baſſo Solo!	*	*I"Clarino in A.	*	*I"Duo Corni in A.	*	*I"Clarinetto 2do in A.	*	*I"Clarinetto Imo in A.	*	*I"Flauto	*
*mI"Organ	*mI"Contrabasso	*	*	*	*mI"Violino II	*	*mI"Violino I	*	*mI"Basso Solo	*	*mI"Clarino in A	*	*mI"Duo Corni in A	*	*mI"Clarinetto II in A	*	*mI"Clarinetto I in A	*	*	*
*I'org	*I'cb	*	*I'vla	*	*I'vl II	*	*I'vl I	*	*I'T/B	*	*I'clno	*	*I'cor	*	*I'cl II	*	*I'cl I	*	*I'fl	*
*	*	*	*	*	*	*	*	*	*mI'B	*	*	*	*	*	*	*	*	*	*	*
*Iorgan	*Icbass	*	*Iviola	*	*Ivioln	*	*Ivioln	*	*Itenor/bass	*	*Iclrno	*	*Icor	*	*Iclars	*	*Iclars	*	*Iflt	*
*ICklav	*ICstr	*	*ICstr	*	*ICstr	*	*ICstr	*	*ICvox	*	*ICbras	*	*ICbras	*	*ICww	*	*ICww	*	*ICww	*
*IGcont	*	*	*	*	*	*	*	*	*IGsolo	*	*	*	*	*	*	*	*	*	*	*
*>[A,B,B,C]	*>[A,B,B,C]	*>[A,B,B,C]	*>[A,B,B,C]	*>[A,B,B,C]	*>[A,B,B,C]	*>[A,B,B,C]	*>[A,B,B,C]	*>[A,B,B,C]	*>[A,B,B,C]	*>[A,B,B,C]	*>[A,B,B,C]	*>[A,B,B,C]	*>[A,B,B,C]	*>[A,B,B,C]	*>[A,B,B,C]	*>[A,B,B,C]	*>[A,B,B,C]	*>[A,B,B,C]	*>[A,B,B,C]	*
*>A	*>A	*>A	*>A	*>A	*>A	*>A	*>A	*>A	*>A	*>A	*>A	*>A	*>A	*>A	*>A	*>A	*>A	*>A	*>A	*
*clefF4	*clefF4	*	*clefC3	*	*clefG2	*	*clefG2	*	*clefF4	*	*clefG2	*	*clefG2	*	*clefG2	*	*clefG2	*	*clefG2	*
*	*	*	*	*	*	*	*	*	*	*	*ITrd2c3	*	*ITrd2c3	*	*ITrd2c3	*	*ITrd2c3	*	*	*
*k[f#c#g#]	*k[f#c#g#]	*	*k[c#f#g#]	*	*k[f#g#c#]	*	*k[f#c#g#]	*	*k[f#c#g#]	*	*k[f#c#g#]	*	*k[f#c#g#]	*	*k[f#c#g#]	*	*k[f#c#g#]	*	*k[f#c#g#]	*
*A:	*A:	*	*A:	*	*A:	*	*A:	*	*A:	*	*A:	*	*A:	*	*A:	*	*A:	*	*A:	*
*M4/4	*M4/4	*	*M4/4	*	*M4/4	*	*M4/4	*	*M4/4	*	*M4/4	*	*M4/4	*	*M4/4	*	*M4/4	*	*M4/4	*
*met(c)	*met(c)	*	*met(c)	*	*met(c)	*	*met(c)	*	*met(c)	*	*met(c)	*	*met(c)	*	*met(c)	*	*met(c)	*	*met(c)	*
=	=	=	=	=	=	=	=	=	=	=	=	=	=	=	=	=	=	=	=	=
*	*	*	*	*	*^	*	*^	*	*	*	*	*	*	*	*	*	*	*	*	*
*	*	*	*	*	*	*cue	*	*	*cue	*	*	*	*	*	*	*	*	*	*	*	*	*
!LO:TX:a:t=P:problem=nad partią w niektórych miejscach zapisana linia pomocnicza z innymi partiami:mod=	!	!	!	!	!LO:TX:a:i:t=Flato solo:mod=	!	!	!LO:TX:a:i:t=Flauto Solo:mod=	!	!	!LO:TX:a:i:t=Andante:mod=	!	!	!	!	!	!	!	!LO:TX:a:i:t=Solo	!	!LO:MO:mod=!LO&colon;TX&colon;a&colon;i&colon;t=Solo	!LO:DY:t= :mod=%s
!LO:TX:a:i:t=Andante:mod=	!LO:TX:a:i:t=Andanto.:mod=	!	!LO:TX:a:i:t=Andante soste:mod=	!	!LO:TX:a:i:t=Andante soste:mod=	!	!	!LO:TX:a:i:t=Andante sostenuto:mod=	!	!	!LO:TX:a:B:t=Basso:mod=	!	!LO:TX:a:i:t=Andante:mod=	!	!	!	!LO:TX:a:i:t=Andante:mod=	!	!LO:TX:a:i:t=Andante:mod=	!	!LO:TX:a:i:t=Andante:mod=	!LO:MO:mod=!LO&colon;DY&colon;ed=brack
!	!	!	!	!	!	!	!	!	!LO:TX:a:Bi:t=Duetto.:mod=	!	!	!	!	!	!	!	!	!	!LO:MO:mod=!LO&colon;TX&colon;b&colon;i&colon;t=dolce	!	!LO:MO:mod=!LO&colon;TX&colon;b&colon;i&colon;t=dolce	!
!	!	!	!	!	!	!LO:MO:mod=4ryy	!	!	!LO:MO:mod=4ryy	!	!	!	!	!	!	!	!	!	!null	!	!null	!null
!	!	!	!	!	!	!	!	!	!	!	!	!	!	!	!	!	!	!	!LO:SIC:s=(8.c#/L	!	!	!
4r	4r	.	4r	.	4rd	8cc#/L	.	4rd	8.cc#/L	.	4r	.	4r	.	4r	.	4r	.	8.c#/L	p	(8.cc#\L	p
!	!	!	!	!	!	!LO:MO:mod=.:null	!	!	!	!	!	!	!	!	!	!	!	!	!	!	!	!
.	.	.	.	.	.	8dd/J	.	.	.	.	.	.	.	.	.	.	.	.	.	.	.	.
!	!	!	!	!	!	!	!	!	!LO:MO:mod=.:null	!	!	!	!	!	!	!	!	!	!LO:TX:b:i:t=dolce:mod=	!	!	!
!	!	!	!	!	!	!	!	!	!	!	!	!	!	!	!	!	!	!	!LO:SIC:s=16d/Jk)	!	!	!
.	.	.	.	.	.	.	.	.	16dd/Jk	.	.	.	.	.	.	.	.	.	16d/Jk	.	16dd\Jk)	.
=1	=1	=1	=1	=1	=1	=1	=1	=1	=1	=1	=1	=1	=1	=1	=1	=1	=1	=1	=1	=1	=1	=1
*	*	*	*	*	*	*	*	*	*	*	*	*	*	*	*^	*	*	*	*	*	*	*
*	*	*	*	*	*	*	*	*	*	*	*	*	*	*	*	*all\right	*	*	*	*	*	*	*
!	!	!LO:DY:b:rj	!	!	!	!LO:MO:mod=1ryy	!	!	!LO:MO:mod=1ryy	!LO:DY:b	!LO:TX:a:t=7.:mod=	!	!	!LO:DY:t=p.:mod=	!	!	!LO:DY:t=p.:mod=	!	!	!LO:MO:mod=4e^/	!	!	!
!	!	!	!	!	!	!	!	!	!	!LO:DY:t=%s:mod= 	!	!	!	!	!	!	!	!	!	!	!	!	!
4AA/	4AA/	p	4r	.	4rd	4ee/	.	4rd	4ee/	p	00r	.	4a\	p	4a/	4A\	p	2r	.	4e/	.	4ee^\	.
!	!	!	!	!LO:DY:t= :mod=%s	!	!	!LO:DY:t= :mod=%s	!	!	!	!	!	!	!	!	!	!	!	!	!	!	!	!
!	!	!	!	!LO:MO:mod=!LO&colon;DY&colon;ed=brack	!	!	!LO:MO:mod=!LO&colon;DY&colon;ed=brack	!LO:MO:mod=!null:null	!	!	!	!	!	!	!	!	!	!	!	!	!	!	!
!	!	!	!	!null	!	!LO:MO:mod=.:null	!null	!LO:N:vis=8	!LO:MO:mod=.:null	!LO:DY:t= :mod=%s	!	!	!	!	!	!	!	!	!	!	!	!	!
4r	4r	.	8.eL 8.c#\	p	8.A/L	8.ff#/L	p	8.eL 8.c#/	8.ff#/L	p	.	.	4r	.	4r	4ryy	.	.	.	8.f#/L	.	8.ff#\L	.
!	!	!	!	!	!	!LO:MO:mod=.:null	!	!	!LO:MO:mod=.:null	!	!	!	!	!	!	!	!	!	!	!	!	!	!
.	.	.	16eJk 16c#\	.	16A/Jk	16gg#/Jk	.	16eJk 16c#/	16gg#/Jk	.	.	.	.	.	.	.	.	.	.	16g#/Jk	.	16gg#\Jk	.
!	!	!	!	!	!	!LO:MO:mod=.:null	!	!	!LO:MO:mod=.:null	!	!	!	!	!	!	!	!	!	!	!	!	!	!
4A\	4A\	.	4e 4c#\	.	4A/	4aa/	.	4e 4c#/	4aa/	.	.	.	4a\	.	4a/	4c#\	.	4A/	.	4a\	.	4aa\	.
!	!	!	!	!	!	!LO:MO:mod=.:null	!	!	!LO:MO:mod=.:null	!	!	!	!	!	!	!	!	!	!	!	!	!	!
4r	4r	.	4r	.	4rf	4ccc#/	.	4rf	4ccc#/	.	.	.	4r	.	4r	4ryy	.	4c#/	.	4cc#\	.	4ccc#\	.
=2	=2	=2	=2	=2	=2	=2	=2	=2	=2	=2	=2	=2	=2	=2	=2	=2	=2	=2	=2	=2	=2	=2	=2
!	!	!	!	!	!	!	!	!	!	!	!	!	!	!	!	!	!	!	!	!LO:MO:mod=*2\left	!	!LO:MO:mod=*2\left	!
*	*	*	*	*	*	*	*	*	*	*	*	*	*	*	*	*	*	*	*	*2\right	*	*2\right	*
!	!	!	!	!	!	!LO:MO:mod=1ryy	!	!	!LO:MO:mod=1ryy	!	!	!	!LO:TX:b:t=1:mod=	!	!LO:TX:b:t=1.:mod=	!	!	!	!	!	!LO:MO:mod=.:null 	!	!
4D\	4D\	.	4r	.	4rf	2ccc#/	.	4rf	2ccc#/	.	.	.	1r	.	1r	1ryy	.	2c#/	.	2cc#\	<	2ccc#\	.
4r	4r	.	8.d\L	.	8.f#L 8.d/	.	.	8.bL 8.f#\	.	.	.	.	.	.	.	.	.	.	.	.	[	.	.
.	.	.	16d\Jk	.	16f#Jk 16d/	.	.	16bJk 16f#\	.	.	.	.	.	.	.	.	.	.	.	.	.	.	.
!	!	!	!	!	!	!LO:MO:mod=.:null	!	!	!LO:MO:mod=.:null	!	!	!	!	!	!	!	!	!	!	!	!	!	!
4D\	4D\	.	4d\	.	4f# 4d/	8ff#/	.	4b 4f#\	8ff#/	.	.	.	.	.	.	.	.	2r	.	8f#/	.	8ff#\	.
!	!	!	!	!	!	!LO:MO:mod=.:null	!	!	!LO:MO:mod=.:null	!	!	!	!	!	!	!	!	!	!	!	!	!	!
.	.	.	.	.	.	8rgg	.	.	8rgg	.	.	.	.	.	.	.	.	.	.	8r	.	8r	.
!	!	!	!	!	!	!LO:MO:mod=.:null	!	!	!LO:MO:mod=.:null	!	!	!	!	!	!	!	!	!	!	!	!	!LO:SIC:s=(8.ddd^\L	!
4r	4r	.	4r	.	4rf	8.ddd/L	.	4rf	8.ddd/L	.	.	.	.	.	.	.	.	.	.	(8.dd^<\L	.	(8.ddd\L	.
!	!	!	!	!	!	!LO:MO:mod=.:null	!	!	!LO:MO:mod=.:null	!	!	!	!	!	!	!	!	!	!	!	!	!	!
.	.	.	.	.	.	16ccc#/Jk	.	.	16ccc#/Jk	.	.	.	.	.	.	.	.	.	.	16cc#\Jk)	.	16ccc#\Jk)	.
=3	=3	=3	=3	=3	=3	=3	=3	=3	=3	=3	=3	=3	=3	=3	=3	=3	=3	=3	=3	=3	=3	=3	=3
!	!	!	!	!	!	!LO:MO:mod=1ryy	!	!	!LO:MO:mod=1ryy	!	!	!	!	!	!	!	!	!LO:TX:a:t=2.:mod=	!	!	!	!LO:SIC:s=(8.ccc#^\L	!
4E\	4E\	.	4r	.	4rf	8.ccc#/L	.	4rf	8.ccc#/L	.	.	.	4r	.	4r	4ryy	.	0r	.	(8.cc#^<\L	.	8.ccc#\L	.
!	!	!	!	!	!	!LO:MO:mod=.:null	!	!	!LO:MO:mod=.:null	!	!	!	!	!	!	!	!	!	!	!	!	!LO:SIC:s=16bb\Jk)	!
.	.	.	.	.	.	16bb/Jk	.	.	16bb/Jk	.	.	.	.	.	.	.	.	.	.	16b\Jk)	.	16bb\Jk	.
!	!	!	!	!	!	!LO:MO:mod=.:null	!	!	!LO:MO:mod=.:null	!	!	!	!	!	!	!	!	!	!	!	!	!LO:SIC:s=(8.ddd^\L	!
4r	4r	.	4d 4B\	.	4e 4d/	8.ddd/L	.	4b 4e\	8.ddd/L	.	.	.	16e/LL	.	4b/	4e\	.	.	.	(8.dd^<\L	.	8.ddd\L	.
.	.	.	.	.	.	.	.	.	.	.	.	.	16e/JJ	.	.	.	.	.	.	.	.	.	.
.	.	.	.	.	.	.	.	.	.	.	.	.	8e/L	.	.	.	.	.	.	.	.	.	.
!	!	!	!	!	!	!LO:MO:mod=.:null	!	!	!LO:MO:mod=.:null	!	!	!	!	!	!	!	!	!	!	!	!	!LO:SIC:s=16ccc#\Jk)	!
.	.	.	.	.	.	16ccc#/Jk	.	.	16ccc#/Jk	.	.	.	.	.	.	.	.	.	.	16cc#\Jk)	.	16ccc#\Jk	.
!	!	!	!	!	!	!LO:MO:mod=.:null	!	!	!LO:MO:mod=.:null	!	!	!	!	!	!	!	!	!	!	!	!	!LO:SIC:s=(8.ccc#^\L	!
4E\	4E\	.	4r	.	4rf	8.ccc#/L	.	4rf	8.ccc#/L	.	.	.	8e/J	.	4b/	4e\	.	.	.	(8.cc#^<\L	.	8.ccc#\L	.
.	.	.	.	.	.	.	.	.	.	.	.	.	4e/	.	.	.	.	.	.	.	.	.	.
!	!	!	!	!	!	!LO:MO:mod=.:null	!	!	!LO:MO:mod=.:null	!	!	!	!	!	!	!	!	!	!	!	!	!LO:SIC:s=16bb\Jk)	!
.	.	.	.	.	.	16bb/Jk	.	.	16bb/Jk	.	.	.	.	.	.	.	.	.	.	16b\Jk)	.	16bb\Jk	.
!	!	!	!	!	!	!LO:MO:mod=.:null	!	!	!LO:MO:mod=.:null	!	!	!	!	!	!	!	!	!	!	!	!	!LO:SIC:s=(8.ff#^\L	!
4r	4r	.	4d 4B\	.	4e 4d/	8.ff#/L	.	4b 4e\	8.ff#/L	.	.	.	.	.	4r	4ryy	.	.	.	(8.f#^</L	.	8.ff#\L	.
.	.	.	.	.	.	.	.	.	.	.	.	.	8r	.	.	.	.	.	.	.	.	.	.
!	!	!	!	!	!	!	!	!LO:TX:a:t=P:problem=wszystkie custos użyte jako łamanie pięciolinii:mod=	!	!	!	!	!	!	!	!	!	!	!	!	!	!	!
!	!	!	!	!	!	!LO:MO:mod=.:null	!	!	!LO:MO:mod=.:null	!	!	!	!	!	!	!	!	!	!	!	!	!LO:SIC:s=16gg#\Jk)	!
.	.	.	.	.	.	16gg#/Jk	.	.	16gg#/Jk	.	.	.	.	.	.	.	.	.	.	16g#/Jk)	.	16gg#\Jk	.
!	!	!	!	!	!	!	!	!LO:MO:mod=*null:null	!	!	!	!	!	!	!	!	!	!	!	!	!	!	!
*	*	*	*	*	*	*	*	*original	*	*	*	*	*	*	*	*	*	*	*	*	*	*	*
*	*	*	*	*	*	*	*	*custos:cc	*	*	*	*	*	*	*	*	*	*	*	*	*	*	*
!LO:LB:g=original	!	!	!	!	!	!	!	!LO:LB:g=original	!LO:LB:g=original	!	!	!	!	!	!	!	!	!	!	!	!	!LO:LB:g=original	!
=4	=4	=4	=4	=4	=4	=4	=4	=4	=4	=4	=4	=4	=4	=4	=4	=4	=4	=4	=4	=4	=4	=4	=4
!	!	!	!	!	!	!LO:MO:mod=1ryy	!	!	!LO:MO:mod=1ryy	!	!	!	!	!	!	!	!	!	!	!	!	!LO:SIC:s=(8.bb^\L	!
4r	4r	.	4r	.	4rf	8.bb/L	.	4rf	8.bb/L	.	.	.	8r	.	4r	4ryy	.	.	.	(8.b^<\L	.	8.bb\L	.
.	.	.	.	.	.	.	.	.	.	.	.	.	16A/LL	.	.	.	.	.	.	.	.	.	.
!	!	!	!	!	!	!LO:MO:mod=.:null	!	!	!LO:MO:mod=.:null	!	!	!	!	!	!	!	!	!	!	!	!	!LO:SIC:s=16aa\Jk)	!
.	.	.	.	.	.	16aa/Jk	.	.	16aa/Jk	.	.	.	16A/JJ	.	.	.	.	.	.	16a\Jk)	.	16aa\Jk	.
!	!	!	!	!	!	!LO:MO:mod=.:null	!	!	!LO:MO:mod=.:null	!	!	!	!	!	!	!	!	!	!	!	!	!LO:SIC:s=(8.ccc#^\L	!
4A\	4AA/	.	8.c#\L	.	8.eL 8.c#/	8.ccc#/L	.	8.aL 8.c#\	8.ccc#/L	.	.	.	8c#/L	.	4cc#/	4a\	.	.	.	(8.cc#\L	.	8.ccc#\L	.
.	.	.	.	.	.	.	.	.	.	.	.	.	8A/J	.	.	.	.	.	.	.	.	.	.
!	!	!	!	!	!	!LO:MO:mod=.:null	!	!	!LO:MO:mod=.:null	!	!	!	!	!	!	!	!	!	!	!	!	!LO:SIC:s=16aa\Jk)	!
.	.	.	16c#\Jk	.	16eJk 16c#/	16aa/Jk	.	16aJk 16c#\	16aa/Jk	.	.	.	.	.	.	.	.	.	.	16b\Jk)	.	16aa\Jk	.
!	!	!	!	!	!	!LO:MO:mod=.:null	!	!	!LO:MO:mod=.:null	!	!	!	!	!	!	!	!	!	!	!	!	!	!
4AA/	4A\	.	4c#\	.	4A/	8ee/	.	4e 4c#\	8ee/	.	.	.	4e/	.	4cc#/	4a\	.	.	.	8e/	.	8ee\	.
!	!	!	!	!	!	!LO:MO:mod=.:null	!	!	!LO:MO:mod=.:null	!	!	!	!	!	!	!	!	!	!	!	!	!	!
.	.	.	.	.	.	8rdd	.	.	8ree	.	.	.	.	.	.	.	.	.	.	8r	.	8r	.
!	!	!	!	!	!	!LO:MO:mod=.:null	!	!	!LO:MO:mod=.:null	!	!	!	!	!	!	!	!	!	!	!	!	!	!
4r	4r	.	4r	.	4rf	8.cc#/L	.	4rd	8.cc#/L	.	.	.	4r	.	4r	4ryy	.	.	.	8.c#/L	.	8.cc#\L	.
!	!	!	!	!	!	!LO:MO:mod=.:null	!	!	!LO:MO:mod=.:null	!	!	!	!	!	!	!	!	!	!	!	!	!	!
.	.	.	.	.	.	16dd/Jk	.	.	16dd/Jk	.	.	.	.	.	.	.	.	.	.	16d/Jk	.	16dd\Jk	.
!	!	!	!LO:LB:g=original	!	!	!	!	!	!	!	!	!	!	!	!	!	!	!	!	!LO:LB:g=original	!	!	!
=5	=5	=5	=5	=5	=5	=5	=5	=5	=5	=5	=5	=5	=5	=5	=5	=5	=5	=5	=5	=5	=5	=5	=5
!	!	!	!	!	!	!LO:MO:mod=1ryy	!	!	!LO:MO:mod=1ryy	!	!	!	!	!	!	!	!	!	!	!	!	!	!
4AA/	4AA/	.	4r	.	4rf	4ee/	.	4rd	4ee/	.	0r	.	4a\	.	4a/	4A\	.	2r	.	4e/	.	4ee\	.
!	!	!	!	!	!	!LO:MO:mod=.:null	!	!	!LO:MO:mod=.:null	!	!	!	!	!	!	!	!	!	!	!	!	!	!
4r	4r	.	8.A/L	.	8.A/L	8.ff#/L	.	8.eL 8.c#/	8.ff#/L	.	.	.	4r	.	4r	4ryy	.	.	.	8.f#/L	.	8.ff#\L	.
!	!	!	!	!	!	!LO:MO:mod=.:null	!	!	!LO:MO:mod=.:null	!	!	!	!	!	!	!	!	!	!	!	!	!	!
.	.	.	16A/Jk	.	16A/Jk	16gg#/Jk	.	16eJk 16c#/	16gg#/Jk	.	.	.	.	.	.	.	.	.	.	16g#/Jk	.	16gg#\Jk	.
!	!	!	!	!	!	!LO:MO:mod=.:null	!	!	!LO:MO:mod=.:null	!	!	!	!	!	!	!	!	!	!	!	!	!	!
4A\	4A\	.	4A/	.	4A/	4aa/	.	4e 4c#/	4aa/	.	.	.	4a\	.	4a/	4A\	.	4A/	.	4a\	.	4aa\	.
!	!	!	!	!	!	!LO:MO:mod=.:null	!	!	!LO:MO:mod=.:null	!	!	!	!	!	!	!	!	!	!	!	!	!	!
4r	4r	.	4r	.	4rf	8.bb/L	.	4rf	8.bb/L	.	.	.	4r	.	4r	4ryy	.	8B/L	.	8.b\L	.	8.bb\L	.
.	.	.	.	.	.	.	.	.	.	.	.	.	.	.	.	.	.	8c#/J	.	.	.	.	.
!	!	!	!	!	!	!LO:MO:mod=.:null	!	!	!LO:MO:mod=.:null	!	!	!	!	!	!	!	!	!	!	!	!	!	!
.	.	.	.	.	.	16ccc#/Jk	.	.	16ccc#/Jk	.	.	.	.	.	.	.	.	.	.	16cc#\Jk	.	16ccc#\Jk	.
!	!LO:LB:g=original	!	!	!	!LO:LB:g=original	!LO:LB:g=original	!	!	!	!	!	!	!	!	!LO:LB:g=original	!LO:LB:g=original	!	!	!	!	!	!	!
=6	=6	=6	=6	=6	=6	=6	=6	=6	=6	=6	=6	=6	=6	=6	=6	=6	=6	=6	=6	=6	=6	=6	=6
!	!	!	!	!	!	!LO:MO:mod=1ryy	!	!	!LO:MO:mod=1ryy	!	!	!	!LO:TX:a:t=1:mod=	!	!LO:TX:b:t=1.:mod=	!	!	!	!	!LO:MO:mod=2cc#^\	!	!LO:SIC:s=2ccc#^\	!
4D\	4D\	.	4r	.	4rf	2ccc#/	.	4rf	2ccc#/	.	.	.	1r	.	1r	1ryy	.	2c#^>/	.	2cc#\	.	2ccc#\	.
4r	4r	.	8.d\L	.	8.bL 8.f#\	.	.	8.bL 8.f#\	.	.	.	.	.	.	.	.	.	.	.	.	.	.	.
.	.	.	16d\Jk	.	16bJk 16f#\	.	.	16bJk 16f#\	.	.	.	.	.	.	.	.	.	.	.	.	.	.	.
!	!	!	!	!	!	!LO:MO:mod=.:null	!	!	!LO:MO:mod=.:null	!	!	!	!	!	!	!	!	!	!	!	!	!	!
4D\	4D\	.	4d\	.	4b 4f#\	8ff#/	.	4b 4f#\	8ff#/	.	.	.	.	.	.	.	.	4r	.	8f#/	.	8ff#\	.
!	!	!	!	!	!	!LO:MO:mod=.:null	!	!	!LO:MO:mod=.:null	!	!	!	!	!	!	!	!	!	!	!	!	!	!
.	.	.	.	.	.	8rgg	.	.	8rgg	.	.	.	.	.	.	.	.	.	.	8r	.	8r	.
!	!	!	!	!	!	!LO:MO:mod=.:null	!	!	!LO:MO:mod=.:null	!	!	!	!	!	!	!	!	!LO:SIC:s=(8.f#/L	!	!	!	!LO:SIC:s=(8.ddd\L	!
4r	4r	.	4r	.	4rf	8.ddd/L	.	4rf	8.ddd/L	.	.	.	.	.	.	.	.	8.f#/L	.	(8.dd\L	.	8.ddd\L	.
!	!	!	!	!	!	!LO:MO:mod=.:null	!	!	!LO:MO:mod=.:null	!	!	!	!	!	!	!	!	!LO:SIC:s=16e/Jk)	!	!	!	!LO:SIC:s=16ccc#\Jk)	!
.	.	.	.	.	.	16ccc#/Jk	.	.	16ccc#/Jk	.	.	.	.	.	.	.	.	16e/Jk	.	16cc#\Jk)	.	16ccc#\Jk	.
!	!	!	!	!	!	!	!	!	!	!	!	!	!LO:LB:g=original	!	!	!	!	!LO:LB:g=original	!	!	!	!	!
=7	=7	=7	=7	=7	=7	=7	=7	=7	=7	=7	=7	=7	=7	=7	=7	=7	=7	=7	=7	=7	=7	=7	=7
!	!	!	!	!	!	!	!	!	!	!LO:MO:mod=!:null	!	!	!	!	!	!	!	!	!	!	!	!	!
!	!	!	!LO:SIC:s=(8.c#/L	!LO:MO:mod=<:null	!LO:SIC:s=(8.e/L	!LO:MO:mod=4ryy	!LO:DY:t= :mod=%s	!LO:SIC:s=(8.cc#\L	!LO:MO:mod=4ryy	!LO:HP:b:t=cresc:mod=	!	!	!	!	!	!	!	!LO:SIC:s=(8.cc#\L	!	!	!	!LO:SIC:s=(8.ccc#\L	!
4E\	4E\	.	8.c#/L	null	8.e/L	8.ccc#/L	<	8.cc#\L	8.ccc#/L	<	1r	.	8r	.	4r	4ryy	.	8.cc#\L	.	(8.ee\L	.	8.ccc#\L	.
!	!	!	!	!LO:MO:mod=!null:null	!	!	!	!	!	!	!	!	!	!	!	!	!	!	!	!	!	!	!
!	!	!	!	!LO:HP:b:t=cresc:mod=	!	!	!	!	!	!	!	!	!	!	!	!	!	!	!	!	!	!	!
!	!	!	!	!LO:MO:mod=.:null	!	!	!	!	!	!	!	!	!	!	!	!	!	!	!	!	!	!	!
.	.	.	.	<	.	.	.	.	.	.	.	.	16e/LL	.	.	.	.	.	.	.	.	.	.
!	!	!	!LO:SIC:s=16B/Jk)	!	!LO:SIC:s=16d/Jk)	!LO:MO:mod=.:null	!	!LO:SIC:s=16b\Jk)	!LO:MO:mod=.:null	!	!	!	!	!	!	!	!	!LO:SIC:s=16b\Jk)	!	!	!	!LO:SIC:s=16bb\Jk)	!
.	.	.	16B/Jk	.	16d/Jk	16bb/Jk	.	16b\Jk	16bb/Jk	.	.	.	16e/JJ	.	.	.	.	16b\Jk	.	16cc#\Jk)	.	16bb\Jk	.
!	!	!	!	!	!LO:SIC:s=(8.g#/L	!LO:MO:mod=4ryy	!LO:HP:b:t=cresc:mod=	!LO:SIC:s=(8.ee\L	!LO:MO:mod=4ryy	!	!	!	!	!	!	!	!	!LO:SIC:s=(8.ee\L	!	!	!	!LO:SIC:s=(8.eee\L	!
!	!	!	!	!	!	!	!LO:MO:mod=.:null 	!	!	!	!	!	!	!	!	!	!	!	!	!	!	!	!
4r	4r	.	(8.e\L	.	8.g#/L	8.eee/L	<	8.ee\L	8.eee/L	.	.	.	8e/L	.	4b/	4e\	.	8.ee\L	.	(8.gg#\L	.	8.eee\L	.
.	.	.	.	.	.	.	.	.	.	.	.	.	8e/J	.	.	.	.	.	.	.	.	.	.
!	!	!	!	!	!LO:SIC:s=16f#/Jk)	!LO:MO:mod=.:null	!	!LO:SIC:s=16dd\Jk)	!LO:MO:mod=.:null	!	!	!	!	!	!	!	!	!LO:SIC:s=16dd\Jk)	!	!	!	!LO:SIC:s=16ddd\Jk)	!
.	.	.	16d\Jk)	.	16f#/Jk	16ddd/Jk	.	16dd\Jk	16ddd/Jk	.	.	.	.	.	.	.	.	16dd\Jk	.	16ff#\Jk)	.	16ddd\Jk	.
!	!	!	!	!	!LO:SIC:s=(8.e/L	!LO:MO:mod=4ryy	!	!LO:SIC:s=(8.cc#\L	!LO:MO:mod=4ryy	!	!	!	!	!	!	!	!	!LO:SIC:s=(8.cc#\L	!	!	!	!LO:SIC:s=(8.ccc#\L	!
4E\	4E\	.	(8.c#/L	.	8.e/L	8.ccc#/L	.	8.cc#\L	8.ccc#/L	.	.	.	4e/	.	4b/	4e\	.	8.cc#\L	.	(8.ee\L	.	8.ccc#\L	.
!	!	!	!	!	!LO:SIC:s=16d/Jk)	!LO:MO:mod=.:null	!	!LO:SIC:s=16b\Jk)	!LO:MO:mod=.:null	!	!	!	!	!	!	!	!	!LO:SIC:s=16b\Jk)	!	!	!	!LO:SIC:s=16bb\Jk)	!
.	.	.	16B/Jk)	.	16d/Jk	16bb/Jk	.	16b\Jk	16aa/Jk	.	.	.	.	.	.	.	.	16b\Jk	.	16dd\Jk)	.	16bb\Jk	.
!	!	!	!	!	!LO:SIC:s=(8.d/L	!LO:MO:mod=4ryy	!	!LO:SIC:s=(8.f#\L	!LO:MO:mod=4ryy	!	!	!	!	!	!	!	!	!LO:SIC:s=(8.b\L	!	!	!	!LO:SIC:s=(8.ff#\L	!
4r	4r	.	(8.d\L	.	8.d/L	8.ff#/L	.	8.f#\L	8.ff#/L	.	.	.	4r	.	4r	4ryy	.	8.b\L	.	(8.dd\L	.	8.ff#\L	.
!	!	!	!	!	!LO:SIC:s=16c#/Jk)	!LO:MO:mod=.:null	!	!LO:SIC:s=16g#\Jk)	!LO:MO:mod=.:null	!	!	!	!	!	!	!	!	!LO:SIC:s=16b\Jk)	!	!	!	!LO:SIC:s=16gg#\Jk)	!
.	.	.	16B\Jk)	.	16c#/Jk	16gg#/Jk	.	16g#\Jk	16gg#/Jk	.	.	.	.	.	.	.	.	16b\Jk	.	16b\Jk)	.	16gg#\Jk	.
!	!	!	!	!	!	!	!	!	!	!	!	!	!	!	!	!	!	!	!	!	!	!LO:LB:g=original	!
=8	=8	=8	=8	=8	=8	=8	=8	=8	=8	=8	=8	=8	=8	=8	=8	=8	=8	=8	=8	=8	=8	=8	=8
!	!	!	!	!LO:DY:t= :mod=%s	!	!	!LO:DY:t= :mod=%s	!	!	!	!	!	!	!	!	!	!	!	!	!	!	!	!
!	!	!	!	!LO:MO:mod=!LO&colon;DY&colon;ed=brack	!	!	!LO:MO:mod=!LO&colon;DY&colon;ed=brack	!	!	!	!	!	!	!	!	!	!	!	!	!	!	!	!
!LO:TX:t=P:problem:mixed beam:mod=	!	!	!	!null	!	!LO:MO:mod=1ryy	!null	!	!LO:MO:mod=1ryy	!LO:DY:b	!	!	!	!	!	!	!	!	!	!	!	!	!
8AA/L	8AA\L	.	4e 4c#\	f	4e 4c#/	4aa/	f	4a\	4aa/	f	2r	.	8r	.	4a/	4c#\	.	4a\	.	4cc#\	.	4aa\	.
8A\	8A\	.	.	.	.	.	.	.	.	.	.	.	8A/L	.	.	.	.	.	.	.	.	.	.
!	!	!	!	!	!	!LO:MO:mod=.:null	!	!	!LO:MO:mod=.:null	!	!	!	!	!	!	!	!	!	!	!	!	!	!
8E\	8E\	.	8.eL 8.c#\	.	8.eL 8.c#/	4ccc#/	.	8.cc#L 8.e\	4ccc#/	.	.	.	8c#/	.	4cc#/	4e\	.	4cc#\	.	4ee\	.	4ccc#\	.
8C#\J	8C#\J	.	.	.	.	.	.	.	.	.	.	.	8e/J	.	.	.	.	.	.	.	.	.	.
.	.	.	16eJk 16c#\	.	16eJk 16c#/	.	.	16cc#Jk 16e\	.	.	.	.	.	.	.	.	.	.	.	.	.	.	.
!	!	!	!	!	!	!LO:MO:mod=.:null	!	!	!LO:MO:mod=.:null	!	!	!	!	!	!	!	!	!	!	!	!	!	!
4AA/	4AA/	.	4A/	.	4e 4c#/	4aa/	.	4a 4c#/	4aa/	.	4r	.	4A/	.	4a/	4c#\	.	4a\	.	4cc#\	.	4aa\	.
!	!	!	!	!	!	!	!	!	!	!	!LO:MO:mod=!LO&colon;TX&colon;a&colon;i&colon;t=Solo	!	!	!	!	!	!	!	!	!	!	!	!
!	!	!	!	!	!	!LO:MO:mod=.:null	!	!	!LO:MO:mod=.:null	!	!LO:TX:a:t=Solo:mod=	!	!	!	!	!	!	!	!	!	!	!	!
4r	4r	.	4r	.	4rf	4rgg	.	4r	4rgg	.	8.C#/	A-	4r	.	4r	4ryy	.	4r	.	4r	.	4r	.
.	.	.	.	.	.	.	.	.	.	.	16D/	-ve	.	.	.	.	.	.	.	.	.	.	.
*	*	*	*	*	*	*Xcue	*	*	*Xcue	*	*	*	*	*	*	*	*	*	*	*	*	*	*
*	*	*	*	*	*v	*v	*	*	*	*	*	*	*	*	*	*	*	*	*	*	*	*	*
*	*	*	*	*	*	*	*v	*v	*	*	*	*	*	*	*	*	*	*	*	*	*	*
!LO:LB:g=original	!	!	!LO:LB:g=original	!	!	!	!LO:LB:g=original	!	!	!	!	!	!	!	!	!	!	!	!	!	!
=9	=9	=9	=9	=9	=9	=9	=9	=9	=9	=9	=9	=9	=9	=9	=9	=9	=9	=9	=9	=9	=9
!LO:MO:mod=!LO&colon;TX&colon;a&colon;i&colon;t=Tasto Solo	!	!	!	!	!	!	!	!	!	!	!	!	!	!	!	!	!	!	!	!	!
!LO:TX:a:i:t=Tast&colon;:mod=	!	!LO:DY:b:rj	!	!	!	!	!	!	!	!	!LO:TX:b:t=7:mod=	!	!LO:TX:a:t=6:mod=	!	!	!LO:TX:a:t=1:mod=	!	!LO:TX:a:t=1.:mod=	!	!LO:TX:a:t=7:mod=	!
4AA/	4AA/	pp	4r	.	4r	.	4r	.	4E\	a-	1r	.	1r	1ryy	.	1r	.	1r	.	00r	.
!	!	!	!	!LO:DY:t= :mod=%s	!	!LO:DY:t= :mod=%s	!	!	!	!	!	!	!	!	!	!	!	!	!	!	!
!	!	!	!	!LO:MO:mod=!LO&colon;DY&colon;ed=brack	!	!LO:MO:mod=!LO&colon;DY&colon;ed=brack	!	!	!	!	!	!	!	!	!	!	!	!	!	!	!
!	!	!	!	!null	!	!null	!	!LO:DY:b:rj	!	!	!	!	!	!	!	!	!	!	!	!	!
4r	4r	.	8.A/L	p	8.A/L	p	8.eL 8.c#/	p	8.F#\L	.	.	.	.	.	.	.	.	.	.	.	.
.	.	.	16A/Jk	.	16A/Jk	.	16eJk 16c#/	.	16G#\Jk	.	.	.	.	.	.	.	.	.	.	.	.
4A\	4A\	.	8A/	.	8A/	.	8e 8c#/	.	4A\	-ve	.	.	.	.	.	.	.	.	.	.	.
.	.	.	8r	.	8r	.	8r	.	.	.	.	.	.	.	.	.	.	.	.	.	.
4r	4r	.	8A/	.	8A/	.	8e 8c#/	.	4c#\	Re-	.	.	.	.	.	.	.	.	.	.	.
.	.	.	8r	.	8r	.	8r	.	.	.	.	.	.	.	.	.	.	.	.	.	.
!	!	!	!	!	!	!	!	!	!LO:LB:g=original	!	!	!	!	!	!	!	!	!	!	!	!
=10	=10	=10	=10	=10	=10	=10	=10	=10	=10	=10	=10	=10	=10	=10	=10	=10	=10	=10	=10	=10	=10
!	!	!	!	!	!	!	!	!	!LO:MO:mod=*2\left	!	!	!	!	!	!	!	!	!	!	!	!
*	*	*	*	*	*	*	*	*	*2\right	*	*	*	*	*	*	*	*	*	*	*	*
4D\	4D\	.	4r	.	4r	.	4r	.	2c#\	-gi-	1r	.	1r	1ryy	.	4r	.	4r	.	.	.
4r	4r	.	8.d\L	.	8.f#L 8.d/	.	8.bL 8.d/	.	.	.	.	.	.	.	.	4B/	.	4f#/	.	.	.
.	.	.	16d\Jk	.	16f#Jk 16d/	.	16bJk 16d/	.	.	.	.	.	.	.	.	.	.	.	.	.	.
4D\	4D\	.	4d\	.	4f# 4d/	.	4b 4d/	.	8F#\	-na	.	.	.	.	.	4B/	.	4f#/	.	.	.
.	.	.	.	.	.	.	.	.	8r	.	.	.	.	.	.	.	.	.	.	.	.
!	!	!	!	!	!	!	!	!	!	!LO:MO:mod=A-	!	!	!	!	!	!	!	!	!	!	!
4r	4r	.	4r	.	4r	.	4r	.	8.d\	a-	.	.	.	.	.	4r	.	4r	.	.	.
.	.	.	.	.	.	.	.	.	16c#\	-ve	.	.	.	.	.	.	.	.	.	.	.
!	!	!	!	!	!LO:LB:g=original	!	!	!	!	!	!	!	!	!	!	!	!	!LO:LB:g=original	!	!	!
=11	=11	=11	=11	=11	=11	=11	=11	=11	=11	=11	=11	=11	=11	=11	=11	=11	=11	=11	=11	=11	=11
!	!	!	!	!	!	!	!	!	!	!	!	!	!	!	!	!LO:TX:a:t=1.:mod=	!	!LO:TX:a:t=1.:mod=	!	!	!
4E\	4E\	.	4r	.	4r	.	4r	.	8.c#\L	Re-	1r	.	1r	1ryy	.	1r	.	1r	.	.	.
.	.	.	.	.	.	.	.	.	16B\Jk	.	.	.	.	.	.	.	.	.	.	.	.
4r	4r	.	4d 4B\	.	4e 4d/	.	4b 4e/	.	8.d\L	-gi-	.	.	.	.	.	.	.	.	.	.	.
.	.	.	.	.	.	.	.	.	16c#\Jk	.	.	.	.	.	.	.	.	.	.	.	.
4E\	4E\	.	4r	.	4r	.	4r	.	8.c#\L	-na	.	.	.	.	.	.	.	.	.	.	.
.	.	.	.	.	.	.	.	.	16B\Jk	.	.	.	.	.	.	.	.	.	.	.	.
!	!	!	!	!	!	!	!	!	!LO:SIC:v:l:t=cae-	!	!	!	!	!	!	!	!	!	!	!	!
4r	4r	.	4d 4B\	.	4e 4d/	.	4b 4e/	.	8.F#\L	ce-	.	.	.	.	.	.	.	.	.	.	.
.	.	.	.	.	.	.	.	.	16G#\Jk	.	.	.	.	.	.	.	.	.	.	.	.
=12	=12	=12	=12	=12	=12	=12	=12	=12	=12	=12	=12	=12	=12	=12	=12	=12	=12	=12	=12	=12	=12
4r	4r	.	4r	.	4r	.	4r	.	8.B\L	-lo-	1r	.	1r	1ryy	.	4r	.	4r	.	.	.
.	.	.	.	.	.	.	.	.	16A\Jk	.	.	.	.	.	.	.	.	.	.	.	.
4AA/	4AA/	.	4e 4c#\	.	4e 4c#/	.	4a 4c#/	.	8.c#\L	.	.	.	.	.	.	4a\	.	4cc#\	.	.	.
.	.	.	.	.	.	.	.	.	16A\Jk	.	.	.	.	.	.	.	.	.	.	.	.
4A\	4A\	.	4A/	.	4A/	.	4e 4c#/	.	8E\	-rum	.	.	.	.	.	4a\	.	4cc#\	.	.	.
.	.	.	.	.	.	.	.	.	8r	.	.	.	.	.	.	.	.	.	.	.	.
!	!	!	!	!	!	!	!	!	!	!LO:MO:mod=A-	!	!	!	!	!	!	!	!	!	!	!
4r	4r	.	4r	.	4r	.	4r	.	8.C#/	a-	.	.	.	.	.	4r	.	4r	.	.	.
.	.	.	.	.	.	.	.	.	16D/	-ve	.	.	.	.	.	.	.	.	.	.	.
!	!LO:LB:g=original	!	!	!	!	!	!	!	!LO:LB:g=original	!	!	!	!	!	!	!	!	!	!	!	!
=13	=13	=13	=13	=13	=13	=13	=13	=13	=13	=13	=13	=13	=13	=13	=13	=13	=13	=13	=13	=13	=13
!	!	!	!	!	!	!	!	!	!	!	!	!	!	!	!	!LO:TX:a:t=1.:mod=	!	!LO:TX:a:t=1.:mod=	!	!	!
4AA/	4AA/	.	4r	.	4r	.	4r	.	4E\	Do-	1r	.	1r	1ryy	.	1r	.	1r	.	0r	.
4r	4r	.	8.A/L	.	8.A/L	.	8.eL 8.c#/	.	8.F#\	-mi-	.	.	.	.	.	.	.	.	.	.	.
.	.	.	16A/Jk	.	16A/Jk	.	16eJk 16c#/	.	16G#\	-na	.	.	.	.	.	.	.	.	.	.	.
4A\	4A\	.	8A/	.	8A/	.	8e 8c#/	.	4A\	An-	.	.	.	.	.	.	.	.	.	.	.
.	.	.	8r	.	8r	.	8r	.	.	.	.	.	.	.	.	.	.	.	.	.	.
.	.	.	.	.	.	.	.	.	32qqB/LLL	.	.	.	.	.	.	.	.	.	.	.	.
.	.	.	.	.	.	.	.	.	32qqA/	.	.	.	.	.	.	.	.	.	.	.	.
.	.	.	.	.	.	.	.	.	32qqG#/	.	.	.	.	.	.	.	.	.	.	.	.
.	.	.	.	.	.	.	.	.	32qqA/JJJ	.	.	.	.	.	.	.	.	.	.	.	.
4r	4r	.	8A/	.	8A/	.	8e 8c#/	.	8B\L	-ge-	.	.	.	.	.	.	.	.	.	.	.
.	.	.	8r	.	8r	.	8r	.	8c#\J	.	.	.	.	.	.	.	.	.	.	.	.
!	!	!	!LO:LB:g=original	!	!	!	!	!	!	!	!	!	!	!	!	!LO:LB:g=original	!	!	!	!	!
=14	=14	=14	=14	=14	=14	=14	=14	=14	=14	=14	=14	=14	=14	=14	=14	=14	=14	=14	=14	=14	=14
!	!	!	!LO:TX:a:t=P:problem=od tego miejsca powyżej partii pięciolinia z pomocniczo zapisaną partią Basu:mod=	!	!	!	!	!	!	!	!	!	!	!	!	!	!	!	!	!	!
4D\	4D\	.	4r	.	4r	.	4r	.	2c#\	-lo-	1r	.	1r	1ryy	.	4r	.	4r	.	.	.
4r	4r	.	8.d\L	.	8.f#L 8.d/	.	8.bL 8.d/	.	.	.	.	.	.	.	.	4d/	.	4f#/	.	.	.
.	.	.	16d\Jk	.	16f#Jk 16d/	.	16bJk 16d/	.	.	.	.	.	.	.	.	.	.	.	.	.	.
4D\	4D\	.	8d\	.	4f# 4d/	.	4b 4d/	.	8F#\	-rum	.	.	.	.	.	4d/	.	4f#/	.	.	.
.	.	.	8r	.	.	.	.	.	8r	.	.	.	.	.	.	.	.	.	.	.	.
4r	4r	.	4r	.	4r	.	4r	.	8.d\	A-	.	.	.	.	.	4r	.	4r	.	.	.
.	.	.	.	.	.	.	.	.	16c#\	-ve	.	.	.	.	.	.	.	.	.	.	.
!	!	!	!	!	!	!	!LO:LB:g=original	!	!	!	!	!	!	!	!	!	!	!	!	!	!
=15	=15	=15	=15	=15	=15	=15	=15	=15	=15	=15	=15	=15	=15	=15	=15	=15	=15	=15	=15	=15	=15
!	!	!	!	!	!	!	!	!	!	!	!	!	!	!	!	!LO:TX:a:t=1:mod=	!	!LO:TX:a:t=1.:mod=	!	!	!
4E\	4E\	.	4r	.	4r	.	4r	.	8.c#\L	Do-	1r	.	4r	4ryy	.	1r	.	1r	.	1r	.
.	.	.	.	.	.	.	.	.	16B\Jk	.	.	.	.	.	.	.	.	.	.	.	.
4r	4r	.	4d 4B/	.	4e 4d/	.	4b 4e/	.	8.e\L	-mi-	.	.	4b/	4e\	.	.	.	.	.	.	.
.	.	.	.	.	.	.	.	.	16d\Jk	-na	.	.	.	.	.	.	.	.	.	.	.
4E\	4E\	.	4r	.	4r	.	4r	.	8.c#\L	An-	.	.	4b/	4e\	.	.	.	.	.	.	.
.	.	.	.	.	.	.	.	.	16B\Jk	.	.	.	.	.	.	.	.	.	.	.	.
4r	4r	.	4d 4B/	.	4e 4d/	.	4b 4e/	.	8.F#\L	-ge-	.	.	4r	4ryy	.	.	.	.	.	.	.
.	.	.	.	.	.	.	.	.	16G#\Jk	.	.	.	.	.	.	.	.	.	.	.	.
!LO:LB:g=original	!	!	!	!	!	!	!	!	!	!	!	!	!	!	!	!	!	!	!	!	!
=16!|:	=16!|:	=16!|:	=16!|:	=16!|:	=16!|:	=16!|:	=16!|:	=16!|:	=16!|:	=16!|:	=16!|:	=16!|:	=16!|:	=16!|:	=16!|:	=16!|:	=16!|:	=16!|:	=16!|:	=16!|:	=16!|:
*>B	*>B	*>B	*>B	*>B	*>B	*>B	*>B	*>B	*>B	*>B	*>B	*>B	*>B	*>B	*>B	*>B	*>B	*>B	*>B	*>B	*
!	!	!	!	!	!	!	!LO:TX:a:t=P:problem=od tego miejsca powyżej partii pięciolinia z pomocniczo zapisaną partią Basu:mod=	!	!	!	!	!	!	!	!	!	!	!	!	!LO:TX:a:t=P:problem=od tego miejsca powyżej partii pięciolinia z pomocniczo zapisaną partią Basu:mod=	!
4AA/	4AA/	.	4e 4c#\	.	4e 4c#/	.	4a/	.	8B\	-lo-	8r	.	4a/	4c#\	.	4c#/	.	4a\	.	4aa\	.
.	.	.	.	.	.	.	.	.	8A\	-rum	16A/LL	.	.	.	.	.	.	.	.	.	.
.	.	.	.	.	.	.	.	.	.	.	16A/JJ	.	.	.	.	.	.	.	.	.	.
4A\	4A\	.	4e 4c#\	.	4a/	.	4cc# 4e/	.	4r	.	8c#/L	.	4cc#/	4e\	.	4e/	.	4cc#\	.	4ccc#\	.
.	.	.	.	.	.	.	.	.	.	.	8e/J	.	.	.	.	.	.	.	.	.	.
!	!	!	!	!	!	!	!	!	!LO:LB:g=original	!	!	!	!	!	!	!	!	!	!	!	!
!	!	!	!	!	!	!	!	!	!LO:TX:a:t=P:problem=znak repetycji w tym miejscu, zamiast na początku taktu:mod=	!	!	!	!	!	!	!	!	!	!	!	!
4AA/	4AA/	.	4A/	.	4A/	.	4a 4c#/	.	4r	.	4A/	.	4a/	4c#\	.	4c#/	.	4a\	.	4aa\	.
4r	4r	.	4r	.	4r	.	4r	.	8.G#\	Sal-	4r	.	4r	4ryy	.	4r	.	4r	.	4r	.
.	.	.	.	.	.	.	.	.	16A\	-ve	.	.	.	.	.	.	.	.	.	.	.
!	!	!	!	!	!LO:LB:g=original	!	!	!	!	!	!	!	!LO:LB:g=original	!LO:LB:g=original	!	!	!	!	!	!	!
=17	=17	=17	=17	=17	=17	=17	=17	=17	=17	=17	=17	=17	=17	=17	=17	=17	=17	=17	=17	=17	=17
!	!	!	!	!	!LO:TX:a:t=P:problem=od tego miejsca powyżej partii pięciolinia z pomocniczo zapisaną partią Basu:mod=	!	!	!	!	!	!LO:TX:a:t=2.:mod=	!	!	!	!	!	!	!	!	!LO:TX:a:t=1:mod=	!
4E\	4E\	.	4r	.	4r	.	4r	.	4B\	sal-	0r	.	4r	4ryy	.	4r	.	4r	.	1r	.
4r	4r	.	4E/	.	4e 4B/	.	4b 4f#/	.	4E\	-ve	.	.	4b/	4e\	.	4g#/	.	4b\	.	.	.
4E\	4E\	.	4r	.	4r	.	4r	.	8r	.	.	.	4b/	4e\	.	4e/	.	4e/	.	.	.
.	.	.	.	.	.	.	.	.	8cn\L	ra-	.	.	.	.	.	.	.	.	.	.	.
4r	4r	.	4A 4E/	.	4e 4cn/	.	4ccn 4g#\	.	8B\J	.	.	.	4r	4ryy	.	4r	.	4r	.	.	.
.	.	.	.	.	.	.	.	.	8c\	-dix	.	.	.	.	.	.	.	.	.	.	.
=18	=18	=18	=18	=18	=18	=18	=18	=18	=18	=18	=18	=18	=18	=18	=18	=18	=18	=18	=18	=18	=18
4EE/	4EE/	.	4r	.	4r	.	4r	.	2c#X\	sal-	.	.	4r	4ryy	.	4r	.	4r	.	(2ccc#\	.
!	!	!	!	!	!	!	!LO:SIC:s=(4cc#X^\	!	!	!	!	!	!	!	!	!	!	!	!	!	!
4E\	4E\	.	2E/	.	(4a#X^\	.	(4cc#X\	.	.	.	.	.	4e/	4e\	.	(4a#X\	.	(4cc#\	.	.	.
4E\	4E\	.	.	.	4b\)	.	4dd\)	.	8d\	-ve	.	.	4e/	4e\	.	4b\)	.	4dd\)	.	4ddd\)	.
.	.	.	.	.	.	.	.	.	8r	.	.	.	.	.	.	.	.	.	.	.	.
4r	4r	.	4E/	.	4e/	.	4e/	.	8B\	sal-	.	.	4r	4ryy	.	4r	.	4r	.	4r	.
!	!	!	!	!	!	!	!	!	!LO:MO:mod=!null:null	!	!	!	!	!	!	!	!	!	!	!	!
!	!	!	!	!	!	!	!	!	!LO:N:vis=8.	!	!	!	!	!	!	!	!	!	!	!	!
.	.	.	.	.	.	.	.	.	8B\	-ve	.	.	.	.	.	.	.	.	.	.	.
!	!	!	!	!	!	!	!	!	!	!	!	!	!	!	!	!	!	!LO:LB:g=original	!	!LO:LB:g=original	!
=19	=19	=19	=19	=19	=19	=19	=19	=19	=19	=19	=19	=19	=19	=19	=19	=19	=19	=19	=19	=19	=19
!	!	!	!	!	!	!	!	!	!	!	!	!	!	!	!	!	!	!LO:TX:a:t=P:problem=od tego miejsca powyżej partii pięciolinia z pomocniczo zapisaną partią Basu:mod=	!	!	!
!	!	!	!	!	!	!	!	!	!	!	!	!	!LO:TX:a:t=P:problem=od tego miejsca powyżej partii pięciolinia z pomocniczo zapisaną partią Basu:mod=	!	!	!	!	!LO:TX:a:t=1.:mod=	!	!LO:TX:a:t=1:mod=	!
4E\	4E\	.	4r	.	4r	.	4r	.	8.d\L	ra-	4e/	.	4e/	4e\	.	1r	.	1r	.	1r	.
.	.	.	.	.	.	.	.	.	16cn\Jk	.	.	.	.	.	.	.	.	.	.	.	.
4r	4r	.	4A 4E/	.	4a 4e/	.	4ccn 4e/	.	8.B\L	-dix	4r	.	4r	4ryy	.	.	.	.	.	.	.
.	.	.	.	.	.	.	.	.	16c\Jk	.	.	.	.	.	.	.	.	.	.	.	.
4E\	4E\	.	4r	.	4r	.	4r	.	8d\L	sal-	4e/	.	4e/	4e\	.	.	.	.	.	.	.
.	.	.	.	.	.	.	.	.	8c\J	.	.	.	.	.	.	.	.	.	.	.	.
*	*	*	*	*	*	*	*	*	*Xtuplet	*	*	*	*	*	*	*	*	*	*	*	*
4r	4r	.	4A 4E/	.	4a 4e/	.	4cc 4e/	.	12c\L	-ve	4r	.	4r	4ryy	.	.	.	.	.	.	.
.	.	.	.	.	.	.	.	.	12B\	.	.	.	.	.	.	.	.	.	.	.	.
.	.	.	.	.	.	.	.	.	12A\J	.	.	.	.	.	.	.	.	.	.	.	.
*	*	*	*	*	*	*	*	*	*	*	*	*	*v	*v	*	*	*	*	*	*	*
!	!LO:LB:g=original	!	!	!LO:LB:g=original	!	!	!	!LO:LB:g=original	!	!LO:LB:g=original	!	!LO:LB:g=original	!	!	!	!	!	!	!	!
=20	=20	=20	=20	=20	=20	=20	=20	=20	=20	=20	=20	=20	=20	=20	=20	=20	=20	=20	=20	=20
*	*^	*	*	*	*	*	*	*	*	*	*^	*	*^	*	*^	*	*	*	*	*
*	*	*cue	*	*	*	*	*	*	*	*	*	*	*cue	*	*	*	*	*	*cue	*	*	*	*	*
!	!	!	!	!	!	!	!	!	!	!	!	!LO:TX:b:t=1.:mod=	!LO:TX:a:i:t=Basſo:mod=	!	!	!	!	!	!	!	!	!	!	!
!	!	!	!	!	!	!	!	!	!	!	!	!	!LO:TX:t=P:problem:brak możliwości wstawienia ukrytego klucza F4 dla dźwięków przypominających:mod=	!	!	!	!	!	!LO:TX:t=P:problem:brak możliwości wstawienia ukrytego klucza F4 dla dźwięków przypominających:mod=	!	!	!	!	!
!	!	!LO:MO:mod=1ryy	!	!	!	!	!	!	!	!	!	!	!LO:MO:mod=1ryy	!	!	!	!	!	!LO:MO:mod=1ryy	!	!	!	!	!
4E\	4E\	4B/	.	4B 4E/	.	4b 4g#/	.	4b 4g#/	.	4B\	por-	2rg	4B/	.	4e/	4e\	.	2e/	4B/	.	2b;\	.	4bb\	.
!	!	!LO:MO:mod=.:null	!	!	!	!	!	!	!LO:DY:b:rj	!	!	!	!LO:MO:mod=.:null	!	!	!	!	!	!LO:MO:mod=.:null	!	!	!	!	!
4EE/	4E\	4e;>/	.	4B 4E;/	.	4e/	.	4ee 4e^\	f	4e;\	.	.	4e;>/	.	4r;	4ryy	.	.	4e;>/	.	.	.	4ee\	.
.	.	.	.	.	.	.	.	.	.	16qqB/LL	.	.	.	.	.	.	.	.	.	.	.	.	.	.
.	.	.	.	.	.	.	.	.	.	16qqe/	.	.	.	.	.	.	.	.	.	.	.	.	.	.
.	.	.	.	.	.	.	.	.	.	16qqB/JJ	.	.	.	.	.	.	.	.	.	.	.	.	.	.
.	.	.	.	.	.	.	.	.	.	16qqG#/LL	.	.	.	.	.	.	.	.	.	.	.	.	.	.
.	.	.	.	.	.	.	.	.	.	16qqB/	.	.	.	.	.	.	.	.	.	.	.	.	.	.
.	.	.	.	.	.	.	.	.	.	16qqG#/JJ	.	.	.	.	.	.	.	.	.	.	.	.	.	.
!LO:TX:a:t=P:problem=fermata nad ćwierćnutą i pauzami:mod=	!	!LO:MO:mod=.:null	!	!	!	!	!	!	!	!	!	!	!LO:MO:mod=.:null	!	!	!	!	!LO:MO:mod=4r;	!LO:MO:mod=.:null	!	!	!	!	!
4r;	4rGG	4E;/	.	4r	.	4r;	.	4r;	.	8E\	-ta	4r;yy	8E/	.	2r	2ryy	.	4rd;<	8E/	.	4r	.	4r;	.
*	*	*Xcue	*	*	*	*	*	*	*	*	*	*	*	*	*	*	*	*	*Xcue	*	*	*	*	*
!	!	!	!	!	!	!	!	!	!	!	!	!	!LO:MO:mod=.:null	!	!	!	!	!	!LO:MO:mod=.:null	!	!	!	!	!
.	.	.	.	.	.	.	.	.	.	8r	.	.	8r	.	.	.	.	.	8ryy	.	.	.	.	.
!	!	!LO:MO:mod=.:null	!	!	!	!	!	!	!	!	!	!	!LO:MO:mod=.:null	!	!	!	!	!	!LO:MO:mod=.:null	!	!	!	!	!
4r	4rAA	4ryy	.	4r	.	4r	.	4r	.	8.C#/	ex	4ryy	8.C#/L	.	.	.	.	4r	4ryy	.	4r	.	4r	.
!	!	!	!	!LO:TX:a:t=P:problem=do tego miejsca powyżej partii pięciolinia z pomocniczo zapisaną partią Basu:mod=	!	!	!	!	!	!	!	!	!LO:MO:mod=.:null	!	!LO:TX:a:t=P:problem=do tego miejsca powyżej partii pięciolinia z pomocniczo zapisaną partią Basu:mod=	!	!	!	!	!	!	!	!	!
.	.	.	.	.	.	.	.	.	.	16D/	qua	.	16D/Jk	.	.	.	.	.	.	.	.	.	.	.
*	*	*	*	*	*	*	*	*	*	*	*	*	*Xcue	*	*	*	*	*	*	*	*	*	*	*
*	*	*	*	*	*	*	*	*	*	*	*	*v	*v	*	*	*	*	*v	*v	*	*	*	*	*
*	*v	*v	*	*	*	*	*	*	*	*	*	*	*	*v	*v	*	*	*	*	*	*	*
!	!	!	!	!	!	!	!	!	!	!	!	!	!LO:LB:g=original	!LO:LB:g=original	!	!LO:LB:g=original	!	!	!	!
=21	=21	=21	=21	=21	=21	=21	=21	=21	=21	=21	=21	=21	=21	=21	=21	=21	=21	=21	=21	=21
*	*	*	*	*	*	*	*	*	*	*	*	*	*^	*	*	*	*	*	*	*
!	!LO:TX:a:i:t=pizz.	!	!	!	!	!	!	!	!	!	!LO:TX:a:t=3:mod=	!	!	!	!	!LO:TX:a:t=1.:mod=	!	!LO:TX:a:t=1.:mod=	!	!LO:TX:a:t=1:mod=	!
8AA/	8AA/	.	4r	.	4r	.	4r	.	4E\	mun-	0r	.	4a/	4A\	.	1r	.	1r	.	1r	.
8r	8r	.	.	.	.	.	.	.	.	.	.	.	.	.	.	.	.	.	.	.	.
8A\	8A\	.	8.eL 8.c#\	.	8.A/L	.	8.eL 8.c#/	.	8.F#\L	-do	.	.	4r	4ryy	.	.	.	.	.	.	.
8r	8r	.	.	.	.	.	.	.	.	.	.	.	.	.	.	.	.	.	.	.	.
.	.	.	16eJk 16c#\	.	16A/Jk	.	16eJk 16c#/	.	16G#\Jk	.	.	.	.	.	.	.	.	.	.	.	.
8A\	8A\	.	8e 8c#\	.	8A/	.	8e 8c#/	.	4A\	lux	.	.	4a/	4c#\	.	.	.	.	.	.	.
8r	8r	.	8r	.	8r	.	8r	.	.	.	.	.	.	.	.	.	.	.	.	.	.
4r	4r	.	8A/	.	8A/	.	8e 8c#/	.	8.B\L	est	.	.	4r	4ryy	.	.	.	.	.	.	.
.	.	.	8r	.	8r	.	8r	.	.	.	.	.	.	.	.	.	.	.	.	.	.
.	.	.	.	.	.	.	.	.	16c#\Jk	.	.	.	.	.	.	.	.	.	.	.	.
*	*	*	*	*	*	*	*	*	*	*	*	*	*v	*v	*	*	*	*	*	*	*
!LO:LB:g=original	!	!	!	!	!	!	!	!	!	!	!	!	!	!	!	!	!	!	!	!
=22	=22	=22	=22	=22	=22	=22	=22	=22	=22	=22	=22	=22	=22	=22	=22	=22	=22	=22	=22	=22
!	!	!	!	!	!	!	!	!	!	!	!	!	!LO:TX:a:t=1:mod=	!	!	!	!	!	!LO:TX:a:t=2:mod=	!
8D\	8D\	.	4r	.	4r	.	4r	.	2c#\	or-	.	.	1r	.	4r	.	4r	.	0r	.
8r	8r	.	.	.	.	.	.	.	.	.	.	.	.	.	.	.	.	.	.	.
!	!	!	!	!	!	!	!LO:MO:mod=!null:null	!	!	!	!	!	!	!	!	!	!	!	!	!
!	!	!	!	!	!	!	!LO:N:vis=8	!	!	!	!	!	!	!	!	!	!	!	!	!
8D\	8D\	.	8.d\L	.	8.f#L 8.d/	.	8.bL 8.d/	.	.	.	.	.	.	.	4d/	.	4f#/	.	.	.
8r	8r	.	.	.	.	.	.	.	.	.	.	.	.	.	.	.	.	.	.	.
.	.	.	16d\Jk	.	16f#Jk 16d/	.	16bJk 16d/	.	.	.	.	.	.	.	.	.	.	.	.	.
8D\	8D\	.	4d\	.	4f# 4d/	.	4b 4d/	.	8F#\	-ta	.	.	.	.	4d/	.	4f#/	.	.	.
8r	8r	.	.	.	.	.	.	.	8r	.	.	.	.	.	.	.	.	.	.	.
4r	4r	.	4r	.	4r	.	4r	.	8.d\	ex	.	.	.	.	4r	.	4r	.	.	.
!	!	!	!	!	!	!	!	!	!LO:MO:mod=!null:null	!	!	!	!	!	!	!	!	!	!	!
!	!	!	!	!	!LO:TX:a:t=P:problem=do tego miejsca powyżej partii pięciolinia z pomocniczo zapisaną partią Basu:mod=	!	!	!	!LO:N:vis=8	!	!	!	!	!	!	!	!	!	!	!
.	.	.	.	.	.	.	.	.	16c#\	qua	.	.	.	.	.	.	.	.	.	.
!	!	!	!	!	!LO:LB:g=original	!	!	!	!LO:LB:g=original	!	!	!	!	!	!	!	!	!	!	!
=23	=23	=23	=23	=23	=23	=23	=23	=23	=23	=23	=23	=23	=23	=23	=23	=23	=23	=23	=23	=23
*	*	*	*	*	*	*	*	*	*	*	*	*	*^	*	*	*	*	*	*	*
!	!LO:TX:a:i:t=colar&colon;	!	!	!	!	!	!	!	!	!	!	!	!	!	!	!	!	!	!	!	!
4E\	4E\	.	4r	.	4r	.	4r	.	8.c#\L	mun-	1r	.	4r	4ryy	.	2r	.	2r	.	.	.
.	.	.	.	.	.	.	.	.	16B\Jk	.	.	.	.	.	.	.	.	.	.	.	.
4r	4r	.	4d 4B/	.	4e 4d/	.	4b 4e/	.	8.e\L	-do	.	.	4b/	4e\	.	.	.	.	.	.	.
.	.	.	.	.	.	.	.	.	16d\Jk	.	.	.	.	.	.	.	.	.	.	.	.
4E\	4E\	.	4r	.	4r	.	4r	.	8.c#\L	lux	.	.	4b/	4e\	.	4r	.	4r	.	.	.
.	.	.	.	.	.	.	.	.	16B\Jk	.	.	.	.	.	.	.	.	.	.	.	.
!	!	!	!	!	!	!	!	!	!LO:MO:mod=!null:null	!	!	!	!	!	!	!	!	!	!	!	!
!	!	!	!	!	!	!	!	!	!LO:N:vis=8	!	!	!	!	!	!	!	!	!	!	!	!
4r	4r	.	4d 4B/	.	4e 4d/	.	4b 4e/	.	8.F#\L	est	.	.	4r	4ryy	.	8.d/L	.	8.f#/L	.	.	.
!	!	!	!	!	!	!	!	!	!	!	!	!	!	!	!	!	!	!	!	!LO:TX:a:t=P:problem=do tego miejsca powyżej partii pięciolinia z pomocniczo zapisaną partią Basu:mod=	!
.	.	.	.	.	.	.	.	.	16G#\Jk	.	.	.	.	.	.	16B/Jk	.	16g#/Jk	.	.	.
!	!	!	!	!	!	!	!LO:MO:mod=*null:null	!	!	!	!	!	!	!	!	!	!	!	!	!	!
*	*	*	*	*	*	*	*original	*	*	*	*	*	*	*	*	*	*	*	*	*	*
*	*	*	*	*	*	*	*custos:cc	*	*	*	*	*	*	*	*	*	*	*	*	*	*
!	!	!	!	!	!	!	!LO:LB:g=original	!	!	!	!	!	!	!	!	!	!	!LO:LB:g=original	!	!	!
=24:|!	=24:|!	=24:|!	=24:|!	=24:|!	=24:|!	=24:|!	=24:|!	=24:|!	=24:|!	=24:|!	=24:|!	=24:|!	=24:|!	=24:|!	=24:|!	=24:|!	=24:|!	=24:|!	=24:|!	=24:|!	=24:|!
*>C	*>C	*>C	*>C	*>C	*>C	*>C	*>C	*>C	*>C	*>C	*>C	*>C	*>C	*>C	*>C	*>C	*>C	*>C	*>C	*>C	*
4AA/	4AA/	.	8r	.	8r	.	8r	.	8B\	or-	8r	.	4a/	4c#\	.	4c#/	.	(8a\L	.	4aa\	.
*	*	*	*tremolo	*	*	*	*	*	*	*	*	*	*	*	*	*	*	*	*	*	*
*	*	*	*	*	*tremolo	*	*	*	*	*	*	*	*	*	*	*	*	*	*	*	*
.	.	.	8e 8c#\L	.	8e 8c#/L	.	8a/L	.	8A\	-ta	16A/LL	.	.	.	.	.	.	8cc#\)	.	.	.
.	.	.	.	.	.	.	.	.	.	.	16A/JJ	.	.	.	.	.	.	.	.	.	.
4r	4r	.	8e 8c#\	.	8e 8c#/	.	8a/	.	4r	.	8A/L	.	8a/	8A\	.	8c#/L	.	8a\	.	8aa\L	.
.	.	.	8e 8c#\J	.	8e 8c#/J	.	8a/J	.	.	.	8A/J	.	8r	8ryy	.	8c#/J	.	8a\J	.	8aa\J	.
!	!	!	!	!	!	!	!	!	!LO:TX:a:t=P:problem=znak końca repetycji w tym miejscu, zamiast na początku taktu:mod=	!	!	!	!	!	!	!	!	!	!	!	!
4D\	4D\	.	8r	.	8r	.	8r	.	4B\	ex	2r	.	2r	2ryy	.	4d/	.	4b\	.	4bb\	.
.	.	.	8d\L	.	8f# 8d/L	.	8bL 8d/	.	.	.	.	.	.	.	.	.	.	.	.	.	.
4r	4r	.	8d\	.	8f# 8d/	.	8b 8d/	.	16B\LL	qua	.	.	.	.	.	4r	.	4r	.	4r	.
.	.	.	.	.	.	.	.	.	16A\	.	.	.	.	.	.	.	.	.	.	.	.
.	.	.	8d\J	.	8f# 8d/J	.	8bJ 8d/	.	16G#\	.	.	.	.	.	.	.	.	.	.	.	.
.	.	.	.	.	.	.	.	.	16F#\JJ	.	.	.	.	.	.	.	.	.	.	.	.
!	!LO:LB:g=original	!	!	!	!	!	!	!	!	!	!	!	!	!	!	!	!	!	!	!	!
=25	=25	=25	=25	=25	=25	=25	=25	=25	=25	=25	=25	=25	=25	=25	=25	=25	=25	=25	=25	=25	=25
4E\	4E\	.	8r	.	8r	.	8r	.	8F#\L	mun-	4r	.	2r	2ryy	.	2c#/	.	2e/	.	4r	.
.	.	.	8A/L	.	8A/L	.	8eL 8c#/	.	8E\J	.	.	.	.	.	.	.	.	.	.	.	.
!	!	!	!	!	!	!	!	!	!LO:N:vis=4	!	!	!	!	!	!	!	!	!	!	!	!
4r	4r	.	8A/	.	8A/	.	8e 8c#/	.	8E\	-do	8.e/L	.	.	.	.	.	.	.	.	4.eeT\	.
.	.	.	8A/J	.	8A/J	.	8eJ 8c#/	.	8r	.	.	.	.	.	.	.	.	.	.	.	.
.	.	.	.	.	.	.	.	.	.	.	16e/Jk	.	.	.	.	.	.	.	.	.	.
4E\	4E\	.	8r	.	8r	.	8r	.	8E\L	ex	4e/	.	4e/	4e\	.	2d/	.	2e/	.	.	.
*	*	*	*	*	*	*	*tremolo	*	*	*	*	*	*	*	*	*	*	*	*	*	*
.	.	.	8B/L	.	8B/L	.	8e 8d/L	.	8F#\J	.	.	.	.	.	.	.	.	.	.	8ee\L	.
4r	4r	.	8B/	.	8B/	.	8e 8d/	.	4G#\	qua	4r	.	4e/	4e\	.	.	.	.	.	8ff#\	.
.	.	.	8B/J	.	8B/J	.	8e 8d/J	.	.	.	.	.	.	.	.	.	.	.	.	8gg#\J	.
*	*	*	*	*	*Xtremolo	*	*Xtremolo	*	*	*	*	*	*	*	*	*	*	*	*	*	*
!	!	!	!	!	!	!	!	!	!LO:LB:g=original	!	!	!	!	!	!	!	!	!	!	!LO:LB:g=original	!
=26	=26	=26	=26	=26	=26	=26	=26	=26	=26	=26	=26	=26	=26	=26	=26	=26	=26	=26	=26	=26	=26
!	!	!	!	!	!	!LO:DY:b	!	!	!	!	!	!	!	!	!	!	!	!	!	!	!
4AA/	4AA/	.	8A/L	.	8c#/L	f	8aL 8A/	.	2A\	mun-	8a\L	.	1a	1A	.	2c#/	.	2a\	.	4aa\	.
.	.	.	16A/L	.	16A/L	.	16a/L	.	.	.	16a\L	.	.	.	.	.	.	.	.	.	.
.	.	.	16A/JJ	.	16A/JJ	.	16a/JJ	.	.	.	16a\JJ	.	.	.	.	.	.	.	.	.	.
4r	4r	.	8A/L	.	8A/L	.	8a/L	.	.	.	8a\L	.	.	.	.	.	.	.	.	4r	.
.	.	.	8A/J	.	8A/J	.	8a/J	.	.	.	8a\J	.	.	.	.	.	.	.	.	.	.
*	*	*	*	*	*tremolo	*	*tremolo	*	*	*	*	*	*	*	*	*	*	*	*	*	*
4C#/	4C#/	.	8A/L	.	8A/L	.	8a/L	.	2C#/	-do	4a\	.	.	.	.	2r	.	2r	.	[2aa\	.
.	.	.	8A/	.	8A/	.	8a/	.	.	.	.	.	.	.	.	.	.	.	.	.	.
4r	4r	.	8A/	.	8A/	.	8a/	.	.	.	4r	.	.	.	.	.	.	.	.	.	.
.	.	.	8A/J	.	8A/J	.	8a/J	.	.	.	.	.	.	.	.	.	.	.	.	.	.
*	*	*	*Xtremolo	*	*Xtremolo	*	*Xtremolo	*	*	*	*	*	*	*	*	*	*	*	*	*	*
!	!	!	!LO:LB:g=original	!	!	!	!	!	!	!	!	!	!LO:LB:g=original	!LO:LB:g=original	!	!	!	!	!	!	!
=27	=27	=27	=27	=27	=27	=27	=27	=27	=27	=27	=27	=27	=27	=27	=27	=27	=27	=27	=27	=27	=27
!	!	!	!LO:TX:a:t=P:problem=od tego miejsca znów powyżej partii pięciolinia z pomocniczo zapisaną partią Basu:mod=	!	!	!	!	!	!	!	!LO:TX:a:t=2:mod=	!	!	!	!	!LO:TX:a:t=2.:mod=	!	!LO:TX:a:t=1.:mod=	!	!	!
4D\	4D\	.	8D/L	.	8d/L	.	8d/L	.	4D\	lux	0r	.	[1a	1A	.	0r	.	1r	.	2aa\]	.
.	.	.	8A/	.	8A/	.	8a/	.	.	.	.	.	.	.	.	.	.	.	.	.	.
4r	4r	.	8A/	.	8A/	.	8a/	.	4D\	est	.	.	.	.	.	.	.	.	.	.	.
.	.	.	8A/J	.	8A/J	.	8a/J	.	.	.	.	.	.	.	.	.	.	.	.	.	.
4D#X\	4D#X\	.	8D#X/L	.	8d#X/L	.	8d#X/L	.	4D#X\	or-	.	.	.	.	.	.	.	.	.	2r	.
.	.	.	8A/	.	8A/	.	8a/	.	.	.	.	.	.	.	.	.	.	.	.	.	.
4r	4r	.	8A/	.	8A/	.	8a/	.	4D#\	-ta	.	.	.	.	.	.	.	.	.	.	.
.	.	.	8A/J	.	8A/J	.	8a/J	.	.	.	.	.	.	.	.	.	.	.	.	.	.
!	!	!	!	!	!	!	!LO:MO:mod=*null:null	!	!	!	!	!	!	!	!	!	!	!	!	!	!
*	*	*	*	*	*	*	*original	*	*	*	*	*	*	*	*	*	*	*	*	*	*
*	*	*	*	*	*	*	*custos:cc	*	*	*	*	*	*	*	*	*	*	*	*	*	*
!	!	!	!	!	!	!	!LO:LB:g=original	!	!	!	!	!	!	!	!	!	!	!	!	!	!
=28	=28	=28	=28	=28	=28	=28	=28	=28	=28	=28	=28	=28	=28	=28	=28	=28	=28	=28	=28	=28	=28
!	!	!	!	!	!	!	!	!	!	!	!	!	!	!	!	!	!	!LO:TX:a:t=1.:mod=	!	!	!
4E\	4E\	.	8E/L	.	8e/L	.	8e/L	.	2E\	lux	.	.	1a_	1A	.	.	.	1r	.	2aa\	.
.	.	.	8A/	.	8A/	.	8a/	.	.	.	.	.	.	.	.	.	.	.	.	.	.
4r	4r	.	8A/	.	8A/	.	8a/	.	.	.	.	.	.	.	.	.	.	.	.	.	.
.	.	.	8A/J	.	8A/J	.	8a/J	.	.	.	.	.	.	.	.	.	.	.	.	.	.
4F#\	4F#\	.	8F#/L	.	8f#/L	.	8f#/L	.	4F#\	.	.	.	.	.	.	.	.	.	.	4ff#\	.
.	.	.	8A/	.	8A/	.	8a/	.	.	.	.	.	.	.	.	.	.	.	.	.	.
!	!	!	!	!	!LO:SIC:v:s=8d#/	!	!	!	!	!	!	!	!	!	!	!	!	!	!	!	!
4D#X\	4D#X\	.	8D#X/	.	8c#X/	.	8d#X/	.	4D#X\	est	.	.	.	.	.	.	.	.	.	4dd#X\	.
.	.	.	8A/J	.	8A/J	.	8a/J	.	.	.	.	.	.	.	.	.	.	.	.	.	.
*	*	*	*	*	*	*	*	*	*	*	*	*	*v	*v	*	*	*	*	*	*	*
!LO:LB:g=original	!	!	!	!	!	!LO:LB:g=original	!	!	!	!	!LO:LB:g=original	!	!	!	!	!	!	!LO:LB:g=original	!	!
=29	=29	=29	=29	=29	=29	=29	=29	=29	=29	=29	=29	=29	=29	=29	=29	=29	=29	=29	=29	=29
*	*^	*	*	*	*	*	*	*	*^	*	*^	*	*	*	*	*	*	*	*^	*
!	!LO:MO:mod=*null:null	!	!	!	!	!	!	!	!	!	!	!	!	!	!	!	!	!	!	!	!	!	!	!
*	*cue	*	*	*	*	*	*	*	*	*	*	*	*	*	*	*	*	*	*	*	*	*	*	*
!LO:MO:mod=4E;	!LO:MO:mod=4E;	!LO:MO:mod=4ryyyy	!	!LO:MO:mod=4E;	!	!LO:MO:mod=4A;	!	!LO:MO:mod=4e; 4c#	!	!	!	!	!	!LO:MO:mod=4ryyyy	!	!LO:MO:mod=4a;] 4A	!	!LO:MO:mod=4e;	!	!LO:MO:mod=4cc#;	!	!LO:MO:mod=4ee;	!LO:MO:mod=4ryyyy	!
4E\	4e	4E	.	4E/	.	4A/	.	4e/ 4c#	.	4E;>\	4ryy	or-	4a;>/	4rd	.	4a/] 4A	.	4e/	.	4cc#\	.	4ryy	4ee\	.
!	!	!	!	!	!	!	!	!	!	!	!	!	!LO:CL:ed	!	!	!	!	!	!	!	!	!	!	!
!	!	!	!	!	!	!	!	!	!	!	!	!	!LO:MO:mod=*null:null	!	!	!	!	!	!	!	!	!	!	!
*	*	*	*	*	*	*	*	*	*	*	*	*	*clefF4	*	*	*	*	*	*	*	*	*	*	*
*	*	*	*	*	*	*	*	*	*	*	*	*	*Xtuplet	*	*	*	*	*	*	*	*	*	*	*
*	*	*	*	*	*	*	*	*	*	*cue	*	*	*cue	*	*	*	*	*	*	*	*	*	*	*
!	!	!	!	!	!	!	!	!	!	!	!	!	!LO:TX:t=P:problem:do końca utworu złe wyświetlanie wysokości małych nut z powodu transpozycji clno:mod=	!	!	!	!	!	!	!	!	!	!	!
!	!LO:MO:mod=4r;	!LO:MO:mod=4ryyyy	!	!	!	!	!	!	!	!	!	!	!LO:MO:mod=4r;	!LO:MO:mod=4ryyyy	!	!	!	!	!	!	!	!	!	!
4r;	4d#/L	4r	.	4r;	.	4r;	.	4r;	.	4e/	4ryy	.	4e;/	4r	.	4r;	.	4r;	.	4r;	.	4r;>	4ryy	.
!	!LO:MO:mod=*null:null	!	!	!	!	!	!	!	!	!	!	!	!LO:MO:mod=*null:null	!	!	!	!	!	!	!	!	!	!	!
*	*rscale:2	*	*	*	*	*	*	*	*	*	*	*	*rscale:2	*	*	*	*	*	*	*	*	*	*	*
!	!LO:MO:mod=4ryyyy	!	!	!	!	!	!	!	!	!	!	!	!LO:MO:mod=4ryy	!	!	!	!	!	!	!	!	!	!	!
4ryy	16f#L	4ryy	.	4ryy	.	4ryy	.	4ryy	.	16d#X/LL	4ryy	.	20d#/LL	4ryy	.	4ryy	.	4ryy	.	4ryy	.	4ryy	4ryy	.
!	!	!	!	!	!	!	!	!	!	!	!	!	!LO:MO:mod=.	!	!	!	!	!	!	!	!	!	!	!
.	.	.	.	.	.	.	.	.	.	.	.	.	20f#/	.	.	.	.	.	.	.	.	.	.	.
!	!LO:MO:mod=.	!	!	!	!	!	!	!	!	!	!	!	!	!	!	!	!	!	!	!	!	!	!	!
.	16e/	.	.	.	.	.	.	.	.	16e/	.	.	.	.	.	.	.	.	.	.	.	.	.	.
!	!	!	!	!	!	!	!	!	!	!	!	!	!LO:MO:mod=.	!	!	!	!	!	!	!	!	!	!	!
.	.	.	.	.	.	.	.	.	.	.	.	.	20e/	.	.	.	.	.	.	.	.	.	.	.
!	!LO:MO:mod=.	!	!	!	!	!	!	!	!	!	!	!	!	!	!	!	!	!	!	!	!	!	!	!
.	16dny/	.	.	.	.	.	.	.	.	16dn/	.	.	.	.	.	.	.	.	.	.	.	.	.	.
!	!	!	!	!	!	!	!	!	!	!	!	!	!LO:MO:mod=.	!	!	!	!	!	!	!	!	!	!	!
.	.	.	.	.	.	.	.	.	.	.	.	.	20dny/	.	.	.	.	.	.	.	.	.	.	.
!	!LO:MO:mod=.	!	!	!	!	!	!	!	!	!	!	!	!	!	!	!	!	!	!	!	!	!	!	!
.	16c#	.	.	.	.	.	.	.	.	16c#/	.	.	.	.	.	.	.	.	.	.	.	.	.	.
!	!	!	!	!	!	!	!	!	!	!	!	!	!LO:MO:mod=.	!	!	!	!	!	!	!	!	!	!	!
.	.	.	.	.	.	.	.	.	.	.	.	.	20c#	.	.	.	.	.	.	.	.	.	.	.
!	!LO:MO:mod=4ryyyy	!	!	!	!	!	!	!	!	!	!	!	!LO:MO:mod=4r;	!	!	!	!	!	!	!	!	!	!	!
4ryy	16B/	4ryy	.	4ryy	.	4ryy	.	4ryy	.	16B/	4ryy	.	16B/	4ryy	.	4ryy	.	4ryy	.	4ryy	.	4ryy	4ryy	.
!	!LO:MO:mod=.	!	!	!	!	!	!	!	!	!	!	!	!LO:MO:mod=.	!	!	!	!	!	!	!	!	!	!	!
.	16A/	.	.	.	.	.	.	.	.	16A/	.	.	16A/	.	.	.	.	.	.	.	.	.	.	.
!	!LO:MO:mod=.	!	!	!	!	!	!	!	!	!	!	!	!LO:MO:mod=.	!	!	!	!	!	!	!	!	!	!	!
.	16G#/	.	.	.	.	.	.	.	.	16G#/	.	.	16G#/	.	.	.	.	.	.	.	.	.	.	.
!	!LO:MO:mod=.	!	!	!	!	!	!	!	!	!	!	!	!LO:MO:mod=.	!	!	!	!	!	!	!	!	!	!	!
.	16F#/JJ	.	.	.	.	.	.	.	.	16F#/JJ	.	.	16F#/JJ	.	.	.	.	.	.	.	.	.	.	.
*	*Xcue	*	*	*	*	*	*	*	*	*Xcue	*	*	*Xcue	*	*	*	*	*	*	*	*	*	*	*
!	!	!	!	!	!	!	!	!	!	!	!	!	!LO:MO:mod=*null:null	!	!	!	!	!	!	!	!	!	!	!
*	*rscale:1	*	*	*	*	*	*	*	*	*	*	*	*rscale:1	*	*	*	*	*	*	*	*	*	*	*
!	!	!	!	!	!	!	!	!	!	!	!	!	!LO:CL:ed	!	!	!	!	!	!	!	!	!	!	!
!	!	!	!	!	!	!	!	!	!	!	!	!	!LO:MO:mod=*null:null	!	!	!	!	!	!	!	!	!	!	!
*	*	*	*	*	*	*	*	*	*	*	*	*	*clefG2	*	*	*	*	*	*	*	*	*	*	*
!	!LO:MO:mod=4E;	!LO:MO:mod=4ryyyy	!	!LO:MO:mod=4B; 4E	!	!LO:MO:mod=4d;/ 4B	!	!LO:MO:mod=4e;/ 4d	!	!	!	!	!LO:MO:mod=4r;	!LO:MO:mod=4ryyyy	!	!	!	!LO:MO:mod=4e;	!	!	!	!LO:MO:mod=4ee;	!	!
4E;\	4ryy	4E\;>	.	4B/ 4E	.	4d/ 4B	.	4e/ 4d	.	4E;>\	4ryy	.	4a;/	4rd;	.	4r;	.	4e/	.	4b;\	.	4ee\	4ryy	.
!	!	!	!	!	!	!	!	!	!	!	!	!	!LO:CL:ed	!	!	!	!	!	!	!	!	!LO:CL:ed	!	!
!	!	!	!	!	!	!	!	!	!	!	!	!	!LO:MO:mod=*null:null	!	!	!	!	!	!	!	!	!LO:MO:mod=*null:null	!	!
*	*	*	*	*	*	*	*	*	*	*	*	*	*clefF4	*	*	*	*	*	*	*	*	*clefF4	*	*
!	!LO:MO:mod=*null:null	!	!	!	!	!	!	!	!	!	!	!	!LO:MO:mod=*null:null	!	!	!	!	!	!	!	!	!LO:MO:mod=*null:null	!	!
*	*rscale:2	*	*	*	*	*	*	*	*	*	*	*	*rscale:2	*	*	*	*	*	*	*	*	*rscale:2	*	*
*	*cue	*	*	*	*	*	*	*	*	*cue	*	*	*cue	*	*	*	*	*	*	*	*	*cue	*	*
!	!	!LO:TX:b:t=P:problem:złe wyświetlanie pauzy z powodu rscale w drugiej warstwie:mod=	!	!	!	!	!	!	!	!	!	!	!	!LO:TX:b:t=P:problem:złe wyświetlanie pauzy z powodu rscale w drugiej warstwie:mod=	!	!	!	!	!	!	!	!LO:TX:a:t=Basso:mod=	!LO:TX:b:t=P:problem:złe wyświetlanie pauzy z powodu rscale w drugiej warstwie:mod=	!
!LO:MO:mod=4E;	!LO:MO:mod=4r;	!LO:MO:mod=4ryyyy	!	!	!	!	!	!	!	!	!	!	!LO:MO:mod=4ryyyy	!LO:MO:mod=4ryyyy	!	!LO:MO:mod=4r;	!	!	!	!	!	!LO:MO:mod=4r;	!LO:MO:mod=4ryyyy	!
4r	16G#/LL	4r;	.	4r;	.	4r;	.	4r;	.	20G#/LL	4ryy	.	16A/LL	4r	.	4r	.	4r;	.	4r;	.	16G#/LL	4r;>	.
.	.	.	.	.	.	.	.	.	.	20F#/	.	.	.	.	.	.	.	.	.	.	.	.	.	.
!	!LO:MO:mod=.	!	!	!	!	!	!	!	!	!	!	!	!LO:MO:mod=.	!	!	!	!	!	!	!	!	!LO:MO:mod=.	!	!
.	16F#/	.	.	.	.	.	.	.	.	.	.	.	16F#/	.	.	.	.	.	.	.	.	16F#/	.	.
.	.	.	.	.	.	.	.	.	.	20E/	.	.	.	.	.	.	.	.	.	.	.	.	.	.
!	!LO:MO:mod=.	!	!	!	!	!	!	!	!	!	!	!	!LO:MO:mod=.	!	!	!	!	!	!	!	!	!LO:MO:mod=.	!	!
.	16E/	.	.	.	.	.	.	.	.	.	.	.	16E/	.	.	.	.	.	.	.	.	16E/	.	.
.	.	.	.	.	.	.	.	.	.	20D/	.	.	.	.	.	.	.	.	.	.	.	.	.	.
!	!LO:MO:mod=.	!	!	!	!	!	!	!	!	!	!	!	!LO:MO:mod=.	!	!	!	!	!	!	!	!	!LO:MO:mod=.	!	!
.	16D/	.	.	.	.	.	.	.	.	.	.	.	16D/J	.	.	.	.	.	.	.	.	16D/J	.	.
.	.	.	.	.	.	.	.	.	.	20C#/JJ	.	.	.	.	.	.	.	.	.	.	.	.	.	.
*	*rscale:1	*	*	*	*	*	*	*	*	*	*	*	*rscale:1	*	*	*	*	*	*	*	*	*rscale:1	*	*
!	!LO:MO:mod=2ryyyy	!	!	!	!	!	!	!	!	!	!	!	!LO:MO:mod=2ryyyy	!	!	!	!	!	!	!	!	!LO:MO:mod=2ryyyy	!	!
2ryy	8C#/	2ryy	.	2ryy	.	2ryy	.	2ryy	.	8D/LLL	2ryy	.	8C/	4ryy	.	2ryy	.	2ryy	.	2ryy	.	8C#/	2ryy	.
!	!LO:MO:mod=.	!	!	!	!	!	!	!	!	!	!	!	!LO:MO:mod=.	!	!	!	!	!	!	!	!	!LO:MO:mod=.	!	!
.	8E/	.	.	.	.	.	.	.	.	8C#/JJJ	.	.	8E/	.	.	.	.	.	.	.	.	8E/	.	.
!	!LO:MO:mod=.	!	!	!	!	!	!	!	!	!LO:N:vis=4.	!	!	!LO:MO:mod=.	!	!	!	!	!	!	!	!	!LO:MO:mod=.	!	!
.	8D/	.	.	.	.	.	.	.	.	8D/	.	.	8D/	4ryy	.	.	.	.	.	.	.	8D/	.	.
!	!LO:MO:mod=.	!	!	!	!	!	!	!	!	!LO:N:vis=8	!	!	!LO:MO:mod=.	!	!	!	!	!	!	!	!	!LO:MO:mod=.	!	!
.	8BB/JJ	.	.	.	.	.	.	.	.	8BB	.	.	8BB/J	.	.	.	.	.	.	.	.	8BB/J	.	.
*	*Xcue	*	*	*	*	*	*	*	*	*Xcue	*	*	*	*	*	*	*	*	*	*	*	*	*	*
*	*v	*v	*	*	*	*	*	*	*	*v	*v	*	*	*	*	*	*	*	*	*	*	*	*	*
=30	=30	=30	=30	=30	=30	=30	=30	=30	=30	=30	=30	=30	=30	=30	=30	=30	=30	=30	=30	=30	=30	=30
!	!	!	!	!	!	!	!	!	!	!	!LO:TX:a:t=1.:mod=	!	!	!	!	!	!	!	!	!LO:MO:mod=1ryyyy	!LO:TX:a:t=1:mod=	!
!	!	!	!	!	!	!	!	!	!LO:MO:mod=[1AA	!	!LO:MO:mod=1ryyyy	!	!	!LO:MO:mod=1r	!	!	!	!	!	!	!	!
4AA/	4AA	.	8A/	.	8a/ 8A	.	8a/	.	1AA	-ta	1AA	1r	.	1ryy	.	4A/	.	4a/	.	1AA	1r	.
.	.	.	8r	.	8r	.	8r	.	.	.	.	.	.	.	.	.	.	.	.	.	.	.
*	*	*	*	*	*	*	*	*	*	*	*	*	*	*	*	*tremolo	*	*tremolo	*	*	*	*
!	!	!	!	!LO:MO:null:mod=!LO&colon;DY&colon;ed=brack	!	!LO:MO:null:mod=!LO&colon;DY&colon;ed=brack	!	!LO:MO:null:mod=!LO&colon;DY&colon;ed=brack	!	!	!	!	!	!	!	!	!	!	!LO:MO:null:mod=!LO&colon;DY&colon;ed=brack	!	!	!
!	!	!	!	!	!	!	!	!	!	!	!	!	!	!	!	!	!	!	!	!	!	!
!	!	!	!	!LO:MO:null:mod=p	!	!LO:MO:null:mod=p	!	!LO:MO:null:mod=p	!	!	!	!	!	!	!	!	!	!	!LO:MO:null:mod=p	!	!	!
4r	4r	.	8dL\	.	8dL/	.	8f#L/	.	.	.	.	.	.	.	.	8dL/	p	8f#L/	.	.	.	.
.	.	.	8dJ\	.	8dJ/	.	8f#J/	.	.	.	.	.	.	.	.	8dJ/	.	8f#J/	.	.	.	.
2r	2r	.	8c#L\	.	8c#L/	.	8eL/	.	.	.	.	.	.	.	.	8c#L/	.	8eL/	.	.	.	.
.	.	.	8c#J\	.	8c#J/	.	8e/	.	.	.	.	.	.	.	.	8c#J/	.	8eJ/	.	.	.	.
.	.	.	8BL\	.	8BL/	.	8d/	.	.	.	.	.	.	.	.	8BL/	.	8dL/	.	.	.	.
.	.	.	8BJ\	.	8BJ/	.	8dJ/	.	.	.	.	.	.	.	.	8BJ/	.	8dJ/	.	.	.	.
*	*	*	*	*	*	*	*	*	*	*	*	*	*	*	*	*Xtremolo	*	*Xtremolo	*	*	*	*
!	!LO:LB:g=original	!	!	!	!	!	!LO:LB:g=original	!	!LO:LB:g=original	!	!	!	!	!	!	!	!	!	!	!	!	!
=31	=31	=31	=31	=31	=31	=31	=31	=31	=31	=31	=31	=31	=31	=31	=31	=31	=31	=31	=31	=31	=31	=31
!	!	!	!	!	!	!	!	!	!	!	!	!	!	!	!	!	!	!	!	!	!LO:CL:ed	!
*	*	*	*	*	*	*	*	*	*	*	*	*	*	*	*	*	*	*	*	*	*clefG2	*
!	!	!	!	!LO:MO:null:mod=!LO&colon;DY&colon;ed=brack	!	!LO:MO:null:mod=!LO&colon;DY&colon;ed=brack	!	!LO:MO:null:mod=!LO&colon;DY&colon;ed=brack	!	!	!	!	!	!	!	!	!LO:MO:null:mod=!LO&colon;DY&colon;ed=brack	!	!LO:MO:null:mod=!LO&colon;DY&colon;ed=brack	!	!	!LO:MO:null:mod=!LO&colon;DY&colon;ed=brack
!	!	!LO:DY:b	!	!	!	!	!	!	!	!	!LO:TX:a:t=1.:mod=	!	!	!	!	!	!	!	!	!LO:TX:b:t=P:problem:złe wyświetlanie z powodu zmiany klucza w drugiej warstwie:mod=	!	!
!	!	!	!	!LO:MO:null:mod=pp	!	!LO:MO:null:mod=pp	!	!LO:MO:null:mod=pp	!LO:MO:mod=1AA]	!	!LO:MO:mod=1ryyyy	!	!	!LO:MO:mod=1r	!	!	!LO:MO:null:mod=pp	!	!LO:MO:null:mod=pp	!LO:MO:mod=1ryyyy	!	!LO:MO:null:mod=pp
4AA/	1AA	pp	1A	.	1A	.	1c#	.	1AA	.	1AA	1r	.	1ryy	.	2A/	.	2c#/	.	1AA	1aa	.
4r	.	.	.	.	.	.	.	.	.	.	.	.	.	.	.	.	.	.	.	.	.	.
2r	.	.	.	.	.	.	.	.	.	.	.	.	.	.	.	2r	.	2r	.	.	.	.
*	*	*	*	*	*	*	*	*	*	*	*v	*v	*	*	*	*	*	*	*	*v	*v	*
==	==	==	==	==	==	==	==	==	==	==	==	==	==	==	==	==	==	==	==	==
*-	*-	*-	*-	*-	*-	*-	*-	*-	*-	*-	*-	*-	*-	*-	*-	*-	*-	*-	*-	*-
!!!system-decoration: [g1][g2]s6[g3]s11
!!!RDF**kern: > = above
!!!RDF**kern: < = below
!!!filter-modern: sic -sq | shed -e "s/LO:DY:(a|b|rj)/LO:dy:$1/L" | modori -m | autostem -r | tie -s | shed -k -e "s/[<>]//g" | shed -e "s/^custos:/Xcustos:/I"
!!!ENC: Berenika Jozajtis
!!!END: 2020-07-18
!!!ENC: Marta Lawrence
!!!END: 2020-12-31
!!!ENC-modern: Marta Lawrence
!!!END-modern: 2022-07-06
!!!YEC: Copyright 2022 Narodowy Instytut Fryderyka Chopina (https://polishscores.org)
!!!YEM: License CC-BY-4.0 (https://creativecommons.org/licenses/by/4.0)
